;FLAVOR:Marlin
;TIME:6442
;Filament used: 8.04845m
;Layer height: 0.2
;MINX:60.58
;MINY:82.326
;MINZ:0.3
;MAXX:175.736
;MAXY:137.674
;MAXZ:17.9
;Generated with Cura_SteamEngine 4.5.0
M140 S60
M105
M190 S60
M104 S202
M105
M109 S202
M82 ;absolute extrusion mode
G21 ;metric values
G90 ;absolute positioning
M82 ;set extruder to absolute mode
M107 ;start with the fan off
G28 X0 Y0 ;move X/Y to min endstops
G28 Z0 ;move Z to min endstops
G1 Z15.0 F9000 ;move the platform down 15mm
G92 E0 ;zero the extruded length
G1 F200 E3 ;extrude 3mm of feed stock
G92 E0 ;zero the extruded length again
G1 F9000;Put printing message on LCD screen
;*** Single Start Tone
M300 S1000 P500 ; chirp to indicate starting to print
;*** End Single Start Tone
M117 Printing..0
G92 E0
G92 E0
G1 F1500 E-6.5
;LAYER_COUNT:84
;LAYER:0
M107
G1 F600 Z1.3
G0 F3600 X79.379 Y83.065 Z1.3
;TYPE:SKIRT
G1 F600 Z0.3
G1 F1500 E0
G1 F1950 X79.795 Y82.778 E0.02521
G1 X80.251 Y82.56 E0.05043
G1 X80.736 Y82.417 E0.07566
G1 X81.334 Y82.348 E0.10569
G1 X82.361 Y82.327 E0.15694
G1 X97.942 Y82.326 E0.93428
G1 X98.643 Y82.336 E0.96925
G1 X99.181 Y82.39 E0.99623
G1 X100.269 Y82.592 E1.05144
G1 X103.016 Y83.063 E1.19049
G1 X105.738 Y83.451 E1.32766
G1 X108.442 Y83.759 E1.46343
G1 X111.151 Y83.989 E1.59907
G1 X113.897 Y84.145 E1.73629
G1 X116.652 Y84.224 E1.8738
G1 X119.37 Y84.224 E2.0094
G1 X122.12 Y84.147 E2.14665
G1 X124.838 Y83.993 E2.28247
G1 X127.577 Y83.761 E2.41961
G1 X130.319 Y83.45 E2.55728
G1 X132.991 Y83.07 E2.69193
G1 X136.782 Y82.398 E2.88401
G1 X137.273 Y82.35 E2.90863
G1 X138.374 Y82.327 E2.96357
G1 X153.958 Y82.326 E3.74106
G1 X154.646 Y82.336 E3.77538
G1 X155.149 Y82.384 E3.80059
G1 X155.638 Y82.51 E3.82579
G1 X156.102 Y82.711 E3.85101
G1 X156.528 Y82.983 E3.87623
G1 X156.906 Y83.319 E3.90146
G1 X157.227 Y83.71 E3.9267
G1 X157.523 Y84.235 E3.95677
G1 X157.932 Y85.154 E4.00695
G1 X167.099 Y106.927 E5.18556
G1 X168.218 Y109.484 E5.32482
G1 X169.388 Y111.963 E5.46158
G1 X170.621 Y114.395 E5.59761
G1 X171.921 Y116.791 E5.73361
G1 X173.315 Y119.192 E5.87212
G1 X174.097 Y120.472 E5.94696
G1 X174.411 Y121.109 E5.98239
G1 X175.247 Y123.165 E6.09312
G1 X175.524 Y123.877 E6.13123
G1 X175.669 Y124.361 E6.15644
G1 X175.736 Y124.862 E6.18166
G1 X175.724 Y125.367 E6.20686
G1 X175.423 Y126.959 E6.28769
G1 X174.919 Y129.708 E6.42712
G1 X174.351 Y133.533 E6.62005
G1 X174.18 Y134.87 E6.68729
G1 X174.077 Y135.365 E6.71252
G1 X173.896 Y135.837 E6.73774
G1 X173.644 Y136.275 E6.76295
G1 X173.326 Y136.668 E6.78817
G1 X172.95 Y137.006 E6.81339
G1 X172.525 Y137.28 E6.83862
G1 X172.063 Y137.485 E6.86384
G1 X171.574 Y137.613 E6.88906
G1 X170.785 Y137.672 E6.92853
G1 X121.677 Y137.674 E9.37854
G1 X119.842 Y137.648 E9.4701
G1 X119.305 Y137.633 E9.4969
G1 X116.561 Y137.631 E9.6338
G1 X114.73 Y137.673 E9.72517
G1 X65.658 Y137.674 E12.17338
G1 X65 Y137.664 E12.20621
G1 X64.497 Y137.616 E12.23142
G1 X64.008 Y137.49 E12.25662
G1 X63.544 Y137.288 E12.28186
G1 X63.118 Y137.016 E12.30708
G1 X62.731 Y136.675 E12.33281
G1 X62.405 Y136.288 E12.35806
G1 X62.144 Y135.855 E12.38328
G1 X61.954 Y135.387 E12.40848
G1 X61.822 Y134.742 E12.44133
G1 X61.534 Y131.861 E12.58578
G1 X61.181 Y129.122 E12.72356
G1 X60.713 Y126.257 E12.86839
G1 X60.617 Y125.633 E12.89988
G1 X60.58 Y125.129 E12.9251
G1 X60.623 Y124.625 E12.95033
G1 X60.803 Y123.857 E12.98969
G1 X60.954 Y123.305 E13.01824
G1 X61.452 Y122.095 E13.08352
G1 X61.681 Y121.618 E13.10991
G1 X61.949 Y121.138 E13.13734
G1 X63.324 Y118.744 E13.27508
G1 X64.621 Y116.328 E13.41188
G1 X65.849 Y113.877 E13.54865
G1 X66.994 Y111.421 E13.68384
G1 X67.928 Y109.272 E13.80075
G1 X78.184 Y84.912 E15.11939
G1 X78.468 Y84.263 E15.15474
G1 X78.707 Y83.817 E15.17998
G1 X79.013 Y83.415 E15.20519
G1 X79.379 Y83.065 E15.23045
G1 F1500 E8.73045
G1 F600 Z1.3
G0 F3600 X90.819 Y121.545 Z1.3
;TYPE:SUPPORT
G1 F600 Z0.3
G1 F1500 E15.23045
G1 F1950 X90.946 Y121.739 E15.24202
G1 X90.819 Y121.777 E15.24863
G1 X90.819 Y121.545 E15.26021
G1 F1500 E8.76021
G1 F600 Z1.3
G0 F3600 X93.836 Y124.761 Z1.3
G1 F600 Z0.3
G1 F1500 E15.26021
G1 F1950 X93.957 Y124.725 E15.26651
G1 X93.957 Y124.943 E15.27738
G1 X93.836 Y124.761 E15.28828
G1 F1500 E8.78828
G1 F600 Z1.3
G0 F3600 X115.192 Y122.61 Z1.3
G1 F600 Z0.3
G1 F1500 E15.28828
G1 F1950 X115.308 Y122.495 E15.29643
G1 X116.27 Y124.964 E15.42863
G1 X115.893 Y125.117 E15.44893
G1 X115.892 Y124.273 E15.49104
G1 X115.192 Y122.61 E15.58106
G1 F1500 E9.08106
G1 F600 Z1.3
G0 F3600 X120.159 Y124.149 Z1.3
G1 F600 Z0.3
G1 F1500 E15.58106
G1 F1950 X120.433 Y123.556 E15.61365
G1 X120.128 Y124.283 E15.65298
G1 X120.159 Y124.149 E15.65984
G0 F3600 X120.115 Y124.336
G1 F1950 X120.115 Y125.16 E15.70095
G1 X119.934 Y125.101 E15.71045
G1 X120.115 Y124.336 E15.74967
G1 F1500 E9.24967
G1 F600 Z1.3
G0 F3600 X146.834 Y121.777 Z1.3
G1 F600 Z0.3
G1 F1500 E15.74967
G1 F1950 X146.834 Y121.543 E15.76134
G1 X146.962 Y121.739 E15.77302
G1 X146.834 Y121.777 E15.77968
G1 F1500 E9.27968
G1 F600 Z1.3
G0 F3600 X149.852 Y124.761 Z1.3
G1 F600 Z0.3
G1 F1500 E15.77968
G1 F1950 X149.972 Y124.725 E15.78593
G1 X149.972 Y124.942 E15.79676
G1 X149.852 Y124.761 E15.80759
G1 F1500 E9.30759
G1 F600 Z1.3
G0 F3600 X171.205 Y122.613 Z1.3
G1 F600 Z0.3
G1 F1500 E15.80759
G1 F1950 X171.313 Y122.506 E15.81518
G1 X172.293 Y124.927 E15.94548
G1 X171.908 Y125.088 E15.9663
G1 X171.907 Y124.272 E16.00701
G1 X171.205 Y122.613 E16.09689
G1 F1500 E9.59689
G1 F600 Z1.3
G0 F3600 X64.1 Y124.678 Z1.3
G1 F600 Z0.3
G1 F1500 E16.09689
G1 F1950 X64.1 Y125.052 E16.11555
G1 X64.01 Y125.021 E16.12029
G1 X64.1 Y124.678 E16.13799
G1 F1500 E9.63799
G1 F600 Z1.3
;MESH:ANET_A8_Upper_Frame_Support.stl(1)
G0 F3600 X65.73 Y124.287 Z1.3
;TYPE:WALL-INNER
G1 F600 Z0.3
G1 F1500 E16.13799
G1 F1950 X81.795 Y86.126 E18.20367
G1 X98.204 Y86.126 E19.02232
G1 X114.4 Y124.595 E21.10471
G1 X114.4 Y133.874 E21.56764
G1 X65.6 Y133.874 E24.00228
G1 X65.6 Y124.594 E24.46526
G1 X65.73 Y124.287 E24.48189
G0 F3600 X81.179 Y119.786
G0 X81.946 Y120.115
G0 X83.958 Y124.908
G1 F1950 X83.399 Y124.676 E24.51209
G1 X82.702 Y124.648 E24.54689
G1 X82.378 Y124.648 E24.56305
G1 X82.378 Y120.924 E24.74885
G1 X82.316 Y120.454 E24.7725
G1 X82.071 Y120.005 E24.79802
G1 X81.659 Y119.713 E24.82321
G1 X81.177 Y119.623 E24.84767
G1 X80.7 Y119.715 E24.87191
G1 X80.293 Y120.004 E24.89681
G1 X80.095 Y120.364 E24.91731
G1 X79.987 Y120.903 E24.94474
G1 X79.987 Y124.648 E25.13157
G1 X79.245 Y124.648 E25.16859
G1 X78.831 Y124.7 E25.18941
G1 X78.422 Y124.918 E25.21253
G1 X78.203 Y125.215 E25.23094
G1 X78.076 Y125.606 E25.25145
G1 X78.109 Y126.048 E25.27357
G1 X78.328 Y126.464 E25.29702
G1 X78.797 Y126.778 E25.32518
G1 X79.245 Y126.834 E25.3477
G1 X83.12 Y126.834 E25.54103
G1 X83.524 Y126.783 E25.56134
G1 X83.933 Y126.568 E25.5844
G1 X83.936 Y126.563 E25.58469
G1 X84.258 Y126.779 E25.59902
G1 X84.685 Y126.834 E25.6205
G1 X87.933 Y126.834 E25.78255
G1 X88.527 Y126.728 E25.81265
G1 X88.866 Y126.496 E25.83314
G1 X89.045 Y126.239 E25.84877
G1 X89.102 Y126.157 E25.85375
G1 X89.142 Y125.934 E25.86506
G1 X89.211 Y125.556 E25.88423
G1 X89.211 Y124.264 E25.94868
G1 X89.211 Y121.028 E26.11013
G1 X89.204 Y120.972 E26.11294
G1 X89.148 Y120.541 E26.13463
G1 X89.104 Y120.463 E26.1391
G1 X88.881 Y120.07 E26.16164
G1 X88.409 Y119.799 E26.18879
G1 X87.918 Y119.735 E26.2135
G1 X84.592 Y119.735 E26.37943
G1 X84.192 Y119.787 E26.39955
G1 X83.799 Y120.007 E26.42202
G1 X83.588 Y120.298 E26.43996
G1 X83.469 Y120.677 E26.45978
G1 X83.497 Y121.109 E26.48137
G1 X83.713 Y121.519 E26.50449
G1 X84.163 Y121.828 E26.53173
G1 X84.592 Y121.884 E26.55331
G1 X86.816 Y121.884 E26.66427
G1 X86.816 Y122.363 E26.68816
G1 X84.898 Y122.363 E26.78385
G1 X84.504 Y122.414 E26.80367
G1 X84.111 Y122.634 E26.82614
G1 X83.911 Y122.927 E26.84384
G1 X83.798 Y123.292 E26.86291
G1 X83.827 Y123.712 E26.88391
G1 X84.037 Y124.112 E26.90645
G1 X84.399 Y124.355 E26.9282
G1 X84.48 Y124.409 E26.93306
G1 X84.722 Y124.44 E26.94523
G1 X84.898 Y124.464 E26.95409
G1 X86.816 Y124.464 E27.04978
G1 X86.816 Y124.713 E27.0622
G1 X84.898 Y124.713 E27.12177
G1 X84.687 Y124.713 E27.12897
G1 X84.521 Y124.733 E27.13477
G1 X84.424 Y124.745 E27.13923
G1 X84.29 Y124.762 E27.14597
G1 X83.972 Y124.933 E27.16398
G1 X83.958 Y124.908 E27.16541
G0 F3600 X83.915 Y126.336
G0 X84.698 Y126.673
G0 X87.918 Y126.673
G0 X88.75 Y126.379
G0 X89.482 Y122.694
G0 X89.48 Y120.97
G0 X89.737 Y120.136
G0 X96.875 Y119.733
G1 F1950 X96.337 Y119.622 E27.19281
G1 X95.875 Y119.711 E27.21629
G1 X95.495 Y119.969 E27.2392
G1 X95.368 Y120.148 E27.25015
G1 X95.294 Y120.251 E27.25648
G1 X95.291 Y120.259 E27.25691
G1 X95.219 Y120.084 E27.26085
G1 X95.194 Y120.025 E27.26192
G1 X94.773 Y119.714 E27.28803
G1 X94.297 Y119.623 E27.31221
G1 X93.829 Y119.713 E27.33599
G1 X93.433 Y120 E27.36039
G1 X93.197 Y120.431 E27.3849
G1 X93.138 Y120.879 E27.40744
G1 X93.138 Y121.685 E27.44766
G1 X93.138 Y121.686 E27.44771
G1 X93.138 Y122.357 E27.48118
G1 X92.771 Y121.795 E27.49862
G1 X91.984 Y120.588 E27.57051
G1 X91.499 Y119.971 E27.60967
G1 X91.064 Y119.706 E27.63508
G1 X90.559 Y119.625 E27.66059
G1 X90.041 Y119.716 E27.68683
G1 X89.609 Y120.028 E27.71342
G1 X89.46 Y120.326 E27.73004
G1 X89.42 Y120.406 E27.73402
G1 X89.388 Y120.584 E27.74305
G1 X89.319 Y120.957 E27.75088
G1 X89.319 Y121.028 E27.75214
G1 X89.319 Y124.264 E27.79573
G1 X89.34 Y125.553 E27.81473
G1 X89.347 Y125.971 E27.82406
G1 X89.378 Y126.055 E27.82566
G1 X89.412 Y126.149 E27.83006
G1 X89.521 Y126.445 E27.84579
G1 X89.965 Y126.85 E27.87578
G1 X90.475 Y126.946 E27.90167
G1 X90.945 Y126.856 E27.92554
G1 X91.341 Y126.563 E27.95012
G1 X91.564 Y126.129 E27.97446
G1 X91.617 Y125.687 E27.99667
G1 X91.617 Y124.795 E28.04117
G1 X91.617 Y124.794 E28.04122
G1 X91.617 Y124.132 E28.07425
G1 X91.983 Y124.684 E28.09148
G1 X93.176 Y126.481 E28.19909
G1 X93.635 Y126.855 E28.22863
G1 X94.274 Y126.937 E28.26077
G1 X94.877 Y126.742 E28.29239
G1 X95.32 Y126.252 E28.32535
G1 X95.457 Y125.526 E28.36221
G1 X95.457 Y122.886 E28.49392
G1 X95.457 Y122.279 E28.5242
G1 X95.449 Y121.823 E28.54695
G1 X95.608 Y122.217 E28.55092
G1 X95.836 Y122.779 E28.57236
G1 X96.454 Y124.302 E28.65436
G1 X97.049 Y125.786 E28.73413
G1 X97.338 Y126.366 E28.76646
G1 X97.776 Y126.762 E28.79592
G1 X98.157 Y126.905 E28.81622
G1 X98.638 Y126.931 E28.84025
G1 X99.217 Y126.785 E28.87005
G1 X99.679 Y126.362 E28.9013
G1 X99.795 Y126.132 E28.91415
G1 X100.096 Y125.442 E28.95171
G1 X101.617 Y121.578 E29.15888
G1 X101.819 Y120.91 E29.1937
G1 X101.778 Y120.451 E29.21669
G1 X101.553 Y120.053 E29.2395
G1 X101.12 Y119.713 E29.26696
G1 X100.657 Y119.625 E29.29047
G1 X100.178 Y119.706 E29.31471
G1 X99.789 Y119.999 E29.33901
G1 X99.433 Y120.754 E29.38065
G1 X99.289 Y121.143 E29.40135
G1 X97.721 Y121.143 E29.47957
G1 X97.578 Y120.768 E29.4996
G1 X97.287 Y120.153 E29.53354
G1 X96.875 Y119.733 E29.56289
G0 F3600 X95.441 Y109.063
G0 X94.665 Y108.476
G0 X90.713 Y108.387
G1 F1950 X90.178 Y108.275 E29.59016
G1 X89.714 Y108.364 E29.61373
G1 X89.333 Y108.622 E29.63669
G1 X89.071 Y108.988 E29.65915
G1 X89.069 Y108.998 E29.65966
G1 X89.034 Y109.16 E29.66792
G1 X88.965 Y109.076 E29.66813
G1 X88.866 Y108.955 E29.67154
G1 X88.309 Y108.585 E29.7049
G1 X87.645 Y108.362 E29.73984
G1 X86.899 Y108.292 E29.77723
G1 X86.172 Y108.362 E29.81366
G1 X85.514 Y108.585 E29.84833
G1 X84.957 Y108.956 E29.88171
G1 X84.542 Y109.46 E29.91429
G1 X84.292 Y110.053 E29.94639
G1 X84.234 Y110.512 E29.96947
G1 X84.235 Y110.992 E29.99342
G1 X84.332 Y111.425 E30.01556
G1 X84.51 Y111.817 E30.03704
G1 X84.773 Y112.168 E30.05892
G1 X84.836 Y112.221 E30.06303
G1 X84.725 Y112.345 E30.07133
G1 X84.497 Y112.839 E30.09847
G1 X84.422 Y113.396 E30.12651
G1 X84.543 Y114.07 E30.16068
G1 X84.739 Y114.472 E30.18299
G1 X85.014 Y114.818 E30.20504
G1 X85.46 Y115.174 E30.23351
G1 X85.913 Y115.376 E30.25826
G1 X86.407 Y115.495 E30.28361
G1 X86.957 Y115.533 E30.31111
G1 X87.61 Y115.468 E30.34385
G1 X88.21 Y115.26 E30.37553
G1 X88.718 Y114.921 E30.406
G1 X88.999 Y114.586 E30.42782
G1 X89.265 Y114.107 E30.45515
G1 X89.389 Y113.56 E30.48313
G1 X89.362 Y113.001 E30.51106
G1 X89.178 Y112.477 E30.53876
G1 X88.977 Y112.219 E30.55508
G1 X89.246 Y111.943 E30.57431
G1 X89.382 Y111.652 E30.59033
G1 X89.521 Y111.352 E30.60683
G1 X89.55 Y111.124 E30.6183
G1 X89.625 Y111.309 E30.61932
G1 X89.749 Y111.615 E30.63035
G1 X90.292 Y112.955 E30.70248
G1 X90.887 Y114.438 E30.7822
G1 X91.176 Y115.018 E30.81453
G1 X91.614 Y115.415 E30.84403
G1 X91.997 Y115.558 E30.86442
G1 X92.476 Y115.582 E30.88835
G1 X93.055 Y115.439 E30.9181
G1 X93.517 Y115.013 E30.94946
G1 X93.633 Y114.784 E30.96226
G1 X93.934 Y114.095 E30.99978
G1 X95.455 Y110.231 E31.20695
G1 X95.659 Y109.556 E31.24213
G1 X95.597 Y109.001 E31.26999
G1 X95.361 Y108.682 E31.28979
G1 X94.957 Y108.366 E31.31538
G1 X94.495 Y108.278 E31.33884
G1 X94.016 Y108.359 E31.36308
G1 X93.628 Y108.652 E31.38733
G1 X93.271 Y109.406 E31.42895
G1 X93.127 Y109.796 E31.44969
G1 X91.559 Y109.796 E31.52792
G1 X91.416 Y109.42 E31.54799
G1 X91.124 Y108.806 E31.58191
G1 X90.713 Y108.387 E31.61119
G0 F3600 X90.513 Y108.754
;TYPE:WALL-OUTER
G1 F1950 X90.174 Y108.683 E31.62847
G1 X89.87 Y108.741 E31.64391
G1 X89.617 Y108.913 E31.65918
G1 X89.444 Y109.154 E31.67398
G1 X89.399 Y109.361 E31.68455
G1 X89.421 Y109.654 E31.6992
G1 X89.581 Y110.135 E31.72449
G1 X90.663 Y112.806 E31.86827
G1 X91.252 Y114.274 E31.94718
G1 X91.5 Y114.772 E31.97494
G1 X91.826 Y115.067 E31.99687
G1 X92.079 Y115.162 E32.01036
G1 X92.437 Y115.18 E32.02824
G1 X92.859 Y115.075 E32.04994
G1 X93.193 Y114.768 E32.07257
G1 X93.271 Y114.614 E32.08118
G1 X93.564 Y113.942 E32.11776
G1 X95.077 Y110.1 E32.32376
G1 X95.252 Y109.519 E32.35403
G1 X95.211 Y109.152 E32.37246
G1 X95.072 Y108.964 E32.38412
G1 X94.787 Y108.741 E32.40218
G1 X94.491 Y108.684 E32.41722
G1 X94.179 Y108.737 E32.433
G1 X93.947 Y108.912 E32.4475
G1 X93.64 Y109.561 E32.48332
G1 X93.405 Y110.196 E32.5171
G1 X91.283 Y110.196 E32.62297
G1 X91.048 Y109.577 E32.656
G1 X90.792 Y109.038 E32.68577
G1 X90.513 Y108.754 E32.70563
G0 F3600 X90.318 Y108.713
G0 X90.38 Y108.421
G0 X89.448 Y108.738
G0 X89.623 Y110.33
G0 X89.183 Y111.84
G0 X88.912 Y111.713
G1 F1950 X89.132 Y111.24 E32.73166
G1 X89.202 Y110.686 E32.75952
G1 X89.135 Y110.151 E32.78642
G1 X88.932 Y109.666 E32.81265
G1 X88.595 Y109.255 E32.83916
G1 X88.132 Y108.947 E32.86691
G1 X87.562 Y108.756 E32.8969
G1 X86.9 Y108.694 E32.93007
G1 X86.256 Y108.756 E32.96235
G1 X85.692 Y108.947 E32.99206
G1 X85.228 Y109.256 E33.01987
G1 X84.888 Y109.669 E33.04656
G1 X84.682 Y110.158 E33.07303
G1 X84.634 Y110.537 E33.09209
G1 X84.635 Y110.947 E33.11254
G1 X84.713 Y111.297 E33.13043
G1 X84.856 Y111.612 E33.14769
G1 X85.065 Y111.89 E33.16505
G1 X85.284 Y112.071 E33.17922
G1 X85.409 Y112.175 E33.18733
G1 X85.43 Y112.193 E33.18871
G1 X85.354 Y112.242 E33.19096
G1 X85.246 Y112.363 E33.19677
G1 X85.063 Y112.567 E33.21044
G1 X84.885 Y112.952 E33.23161
G1 X84.827 Y113.387 E33.2535
G1 X84.927 Y113.945 E33.28178
G1 X85.079 Y114.257 E33.2991
G1 X85.299 Y114.534 E33.31675
G1 X85.67 Y114.83 E33.34042
G1 X86.042 Y114.996 E33.36075
G1 X86.468 Y115.098 E33.3826
G1 X86.951 Y115.132 E33.40676
G1 X87.523 Y115.075 E33.43544
G1 X88.03 Y114.899 E33.46221
G1 X88.448 Y114.62 E33.48728
G1 X88.668 Y114.358 E33.50435
G1 X88.888 Y113.963 E33.52691
G1 X88.987 Y113.525 E33.54931
G1 X88.965 Y113.079 E33.57159
G1 X88.822 Y112.671 E33.59316
G1 X88.555 Y112.328 E33.61485
G1 X88.438 Y112.247 E33.62194
G1 X88.358 Y112.191 E33.62682
G1 X88.452 Y112.14 E33.62836
G1 X88.548 Y112.088 E33.63078
G1 X88.912 Y111.713 E33.65685
G0 F3600 X88.996 Y111.532
G0 X89.267 Y111.658
G0 X89.245 Y112.729
G0 X88.736 Y120.104
G0 X88.587 Y120.362
G1 F1950 X88.279 Y120.185 E33.67457
G1 X87.892 Y120.135 E33.69404
G1 X84.618 Y120.135 E33.85738
G1 X84.32 Y120.174 E33.87238
G1 X84.071 Y120.313 E33.8866
G1 X83.95 Y120.48 E33.89689
G1 X83.873 Y120.725 E33.90971
G1 X83.891 Y120.998 E33.92335
G1 X84.021 Y121.245 E33.93728
G1 X84.31 Y121.444 E33.95479
G1 X84.618 Y121.484 E33.97028
G1 X87.216 Y121.484 E34.0999
G1 X87.216 Y122.763 E34.16371
G1 X84.924 Y122.763 E34.27805
G1 X84.632 Y122.801 E34.29274
G1 X84.388 Y122.937 E34.30668
