;FLAVOR:Marlin
;TIME:2949
;Filament used: 2.91964m
;Layer height: 0.2
;MINX:79.71
;MINY:68.671
;MINZ:0.3
;MAXX:140.317
;MAXY:148.78
;MAXZ:28.7
;Generated with Cura_SteamEngine 4.5.0
M140 S60
M105
M190 S60
M104 S202
M105
M109 S202
M82 ;absolute extrusion mode
G21 ;metric values
G90 ;absolute positioning
M82 ;set extruder to absolute mode
M107 ;start with the fan off
G28 X0 Y0 ;move X/Y to min endstops
G28 Z0 ;move Z to min endstops
G1 Z15.0 F9000 ;move the platform down 15mm
G92 E0 ;zero the extruded length
G1 F200 E3 ;extrude 3mm of feed stock
G92 E0 ;zero the extruded length again
G1 F9000;Put printing message on LCD screen
;*** Single Start Tone
M300 S1000 P500 ; chirp to indicate starting to print
;*** End Single Start Tone
M117 Printing..0
G92 E0
G92 E0
G1 F1500 E-6.5
;LAYER_COUNT:143
;LAYER:0
M107
G1 F600 Z1.3
G0 F3600 X87.743 Y78.4 Z1.3
;TYPE:SKIRT
G1 F600 Z0.3
G1 F1500 E0
G1 F1950 X88.552 Y77.588 E0.05719
G1 X89.775 Y76.428 E0.14128
G1 X90.303 Y75.94 E0.17715
G1 X91.177 Y75.247 E0.2328
G1 X92.544 Y74.223 E0.31801
G1 X93.13 Y73.798 E0.35413
G1 X94.058 Y73.224 E0.40857
G1 X95.529 Y72.368 E0.49348
G1 X96.161 Y72.013 E0.52964
G1 X97.249 Y71.506 E0.58952
G1 X98.749 Y70.857 E0.67106
G1 X99.409 Y70.581 E0.70675
G1 X100.467 Y70.23 E0.76237
G1 X102.147 Y69.725 E0.84989
G1 X102.777 Y69.545 E0.88258
G1 X103.952 Y69.304 E0.94242
G1 X105.57 Y69.015 E1.02442
G1 X106.261 Y68.902 E1.05935
G1 X107.446 Y68.8 E1.11869
G1 X109.092 Y68.704 E1.20095
G1 X109.824 Y68.671 E1.2375
G1 X110.889 Y68.702 E1.29066
G1 X112.532 Y68.796 E1.37276
G1 X113.28 Y68.849 E1.41017
G1 X114.257 Y68.989 E1.45941
G1 X115.924 Y69.275 E1.5438
G1 X116.687 Y69.417 E1.58252
G1 X117.535 Y69.635 E1.6262
G1 X119.316 Y70.152 E1.71872
G1 X119.848 Y70.32 E1.74656
G1 X121.185 Y70.833 E1.818
G1 X122.013 Y71.175 E1.86269
G1 X122.572 Y71.413 E1.89301
G1 X123.078 Y71.64 E1.92067
G1 X124.267 Y72.259 E1.98755
G1 X124.933 Y72.628 E2.02554
G1 X125.697 Y73.061 E2.06935
G1 X126.151 Y73.331 E2.0957
G1 X127.124 Y73.991 E2.15436
G1 X127.703 Y74.403 E2.18981
G1 X128.602 Y75.059 E2.24533
G1 X129.013 Y75.375 E2.2712
G1 X129.793 Y76.045 E2.3225
G1 X130.339 Y76.535 E2.3591
G1 X131.242 Y77.367 E2.42036
G1 X131.611 Y77.728 E2.44611
G1 X132.115 Y78.269 E2.483
G1 X132.692 Y78.915 E2.52621
G1 X133.593 Y79.961 E2.59509
G1 X133.985 Y80.449 E2.62632
G1 X134.29 Y80.864 E2.65201
G1 X134.756 Y81.522 E2.69224
G1 X135.652 Y82.84 E2.77175
G1 X136.029 Y83.452 E2.80761
G1 X136.521 Y84.338 E2.85817
G1 X137.315 Y85.857 E2.94368
G1 X137.936 Y87.261 E3.02028
G1 X138.151 Y87.783 E3.04844
G1 X138.505 Y88.678 E3.09646
G1 X138.689 Y89.204 E3.12426
G1 X139.054 Y90.393 E3.18631
G1 X139.248 Y91.072 E3.22154
G1 X139.469 Y91.889 E3.26377
G1 X139.61 Y92.5 E3.29505
G1 X139.838 Y93.739 E3.3579
G1 X140.015 Y94.825 E3.4128
G1 X140.122 Y95.544 E3.44907
G1 X140.189 Y96.341 E3.48897
G1 X140.289 Y98.179 E3.5808
G1 X140.317 Y98.896 E3.6166
G1 X140.296 Y99.762 E3.65982
G1 X140.218 Y101.2 E3.73167
G1 X140.178 Y101.751 E3.75923
G1 X140.07 Y102.785 E3.81109
G1 X139.992 Y103.343 E3.8392
G1 X139.767 Y104.653 E3.90552
G1 X139.665 Y105.182 E3.9324
G1 X139.5 Y105.913 E3.96978
G1 X139.089 Y107.449 E4.04911
G1 X138.939 Y107.967 E4.07601
G1 X138.717 Y108.691 E4.1138
G1 X138 Y110.553 E4.21334
G1 X137.75 Y111.154 E4.24581
G1 X137.426 Y111.897 E4.28625
G1 X137.189 Y112.388 E4.31345
G1 X136.548 Y113.58 E4.38098
G1 X136.153 Y114.288 E4.42142
G1 X135.804 Y114.895 E4.45636
G1 X135.491 Y115.387 E4.48545
G1 X134.756 Y116.448 E4.54984
G1 X134.296 Y117.092 E4.58933
G1 X133.837 Y117.713 E4.62785
G1 X132.728 Y119.056 E4.71475
G1 X131.035 Y121.149 E4.84905
G1 X129.348 Y123.362 E4.98788
G1 X127.77 Y125.556 E5.12271
G1 X126.243 Y127.813 E5.25866
G1 X124.773 Y130.123 E5.39527
G1 X123.374 Y132.467 E5.53145
G1 X122.059 Y134.815 E5.66572
G1 X120.777 Y137.266 E5.80371
G1 X119.586 Y139.711 E5.9394
G1 X118.466 Y142.183 E6.07479
G1 X118.081 Y143.061 E6.12262
G1 X117.827 Y143.533 E6.14937
G1 X117.505 Y143.962 E6.17613
G1 X117.078 Y144.389 E6.20625
G1 X116.431 Y144.913 E6.24779
G1 X115.961 Y145.171 E6.27454
G1 X115.421 Y145.367 E6.3032
G1 X114.422 Y145.6 E6.35438
G1 X113.508 Y145.635 E6.40001
G1 X97.557 Y145.637 E7.19581
G1 X96.922 Y145.624 E7.2275
G1 X96.388 Y145.573 E7.25426
G1 X95.64 Y145.39 E7.29268
G1 X95.132 Y145.216 E7.31947
G1 X94.657 Y144.968 E7.3462
G1 X94.201 Y144.633 E7.37443
G1 X93.742 Y144.222 E7.40517
G1 X93.378 Y143.827 E7.43197
G1 X93.078 Y143.383 E7.4587
G1 X92.771 Y142.686 E7.4967
G1 X92.617 Y142.196 E7.52232
G1 X92.461 Y141.571 E7.55446
G1 X92.335 Y140.819 E7.5925
G1 X91.849 Y138.156 E7.72755
G1 X91.278 Y135.459 E7.86509
G1 X90.642 Y132.826 E8.00023
G1 X89.917 Y130.16 E8.13807
G1 X89.138 Y127.584 E8.27233
G1 X88.28 Y125.01 E8.40769
G1 X87.33 Y122.408 E8.54589
G1 X86.331 Y119.896 E8.68076
G1 X85.261 Y117.412 E8.8157
G1 X84.091 Y114.895 E8.95417
G1 X83.045 Y112.791 E9.0714
G1 X82.666 Y112.052 E9.11283
G1 X82.334 Y111.381 E9.15018
G1 X81.912 Y110.341 E9.20618
G1 X81.325 Y108.766 E9.29004
G1 X81.077 Y108.071 E9.32685
G1 X80.778 Y106.985 E9.38305
G1 X80.377 Y105.352 E9.46694
G1 X80.215 Y104.656 E9.50259
G1 X80.041 Y103.5 E9.56091
G1 X79.836 Y101.848 E9.64396
G1 X79.759 Y101.144 E9.6793
G1 X79.72 Y99.964 E9.7382
G1 X79.71 Y98.355 E9.81847
G1 X79.715 Y97.584 E9.85694
G1 X79.804 Y96.5 E9.9112
G1 X79.997 Y94.762 E9.99845
G1 X80.081 Y94.089 E10.03228
G1 X80.314 Y92.935 E10.09102
G1 X80.681 Y91.351 E10.17214
G1 X80.866 Y90.604 E10.21053
G1 X81.209 Y89.556 E10.26554
G1 X81.778 Y87.966 E10.3498
G1 X82.033 Y87.282 E10.38622
G1 X82.494 Y86.285 E10.44102
G1 X83.255 Y84.753 E10.52636
G1 X83.583 Y84.112 E10.56228
G1 X84.202 Y83.103 E10.62134
G1 X85.105 Y81.721 E10.7037
G1 X85.513 Y81.115 E10.74015
G1 X86.176 Y80.269 E10.79377
G1 X87.304 Y78.913 E10.88177
G1 X87.743 Y78.4 E10.91546
G0 F3600 X88.047 Y78.661
G1 F1950 X88.832 Y77.873 E10.97095
G1 X90.05 Y76.718 E11.05469
G1 X90.574 Y76.234 E11.09028
G1 X91.422 Y75.564 E11.1442
G1 X92.784 Y74.544 E11.22909
G1 X93.365 Y74.121 E11.26494
G1 X94.264 Y73.566 E11.31765
G1 X95.73 Y72.714 E11.40225
G1 X96.357 Y72.362 E11.43812
G1 X97.414 Y71.871 E11.49627
G1 X98.907 Y71.224 E11.57745
G1 X99.563 Y70.95 E11.61292
G1 X100.588 Y70.611 E11.66678
G1 X102.262 Y70.108 E11.75398
G1 X102.886 Y69.93 E11.78636
G1 X104.028 Y69.697 E11.8445
G1 X105.64 Y69.409 E11.9262
G1 X106.325 Y69.297 E11.96083
G1 X107.476 Y69.199 E12.01846
G1 X109.116 Y69.103 E12.10042
G1 X109.841 Y69.071 E12.13663
G1 X110.872 Y69.102 E12.18809
G1 X112.509 Y69.195 E12.26989
G1 X113.252 Y69.248 E12.30705
G1 X114.196 Y69.384 E12.35463
G1 X115.856 Y69.669 E12.43866
G1 X116.614 Y69.81 E12.47713
G1 X117.43 Y70.021 E12.51918
G1 X119.205 Y70.536 E12.61138
G1 X119.727 Y70.701 E12.6387
G1 X121.04 Y71.206 E12.70888
G1 X121.859 Y71.545 E12.7531
G1 X122.415 Y71.781 E12.78324
G1 X122.914 Y72.005 E12.81053
G1 X124.08 Y72.613 E12.87613
G1 X124.74 Y72.978 E12.91376
G1 X125.5 Y73.409 E12.95735
G1 X125.946 Y73.675 E12.98326
G1 X126.897 Y74.321 E13.04061
G1 X127.471 Y74.729 E13.07575
G1 X128.366 Y75.382 E13.13102
G1 X128.769 Y75.692 E13.15639
G1 X129.53 Y76.347 E13.20648
G1 X130.072 Y76.833 E13.2428
G1 X130.971 Y77.661 E13.30377
G1 X131.331 Y78.013 E13.32889
G1 X131.82 Y78.54 E13.36476
G1 X132.393 Y79.181 E13.40766
G1 X133.289 Y80.222 E13.47618
G1 X133.663 Y80.686 E13.50591
G1 X133.968 Y81.101 E13.53161
G1 X134.429 Y81.753 E13.57144
G1 X135.321 Y83.065 E13.6506
G1 X135.685 Y83.656 E13.68523
G1 X136.171 Y84.531 E13.73516
G1 X136.96 Y86.042 E13.8202
G1 X137.569 Y87.42 E13.89537
G1 X137.781 Y87.935 E13.92315
G1 X138.133 Y88.825 E13.9709
G1 X138.31 Y89.333 E13.99774
G1 X138.671 Y90.51 E14.05916
G1 X138.85 Y91.133 E14.0915
G1 X139.083 Y91.993 E14.13595
G1 X139.22 Y92.588 E14.16641
G1 X139.444 Y93.81 E14.22839
G1 X139.62 Y94.889 E14.28294
G1 X139.726 Y95.602 E14.3189
G1 X139.79 Y96.37 E14.35735
G1 X139.889 Y98.2 E14.44878
G1 X139.918 Y98.912 E14.48433
G1 X139.896 Y99.747 E14.52601
G1 X139.818 Y101.178 E14.5975
G1 X139.78 Y101.709 E14.62406
G1 X139.672 Y102.743 E14.67593
G1 X139.598 Y103.277 E14.70283
G1 X139.373 Y104.585 E14.76904
G1 X139.274 Y105.094 E14.79491
G1 X139.109 Y105.825 E14.8323
G1 X138.703 Y107.345 E14.91079
G1 X138.555 Y107.855 E14.93728
G1 X138.335 Y108.573 E14.97475
G1 X137.627 Y110.408 E15.07288
G1 X137.381 Y111 E15.10486
G1 X137.06 Y111.737 E15.14496
G1 X136.836 Y112.199 E15.17058
G1 X136.195 Y113.391 E15.2381
G1 X135.804 Y114.093 E15.27819
G1 X135.457 Y114.695 E15.31286
G1 X135.155 Y115.17 E15.34094
G1 X134.428 Y116.22 E15.40465
G1 X133.971 Y116.859 E15.44385
G1 X133.516 Y117.475 E15.48206
G1 X132.448 Y118.766 E15.56565
G1 X130.703 Y120.925 E15.70414
G1 X129.042 Y123.103 E15.8408
G1 X127.442 Y125.328 E15.97752
G1 X125.907 Y127.596 E16.11415
G1 X124.435 Y129.908 E16.25089
G1 X123.024 Y132.273 E16.38829
G1 X121.691 Y134.656 E16.52451
G1 X120.447 Y137.032 E16.65832
G1 X119.22 Y139.55 E16.79806
G1 X118.1 Y142.025 E16.93359
G1 X117.716 Y142.898 E16.98118
G1 X117.474 Y143.342 E17.0064
G1 X116.996 Y143.916 E17.04367
G1 X116.592 Y144.289 E17.0711
G1 X116.188 Y144.593 E17.09633
G1 X115.742 Y144.831 E17.12155
G1 X114.842 Y145.112 E17.16859
G1 X114.345 Y145.207 E17.19383
G1 X113.501 Y145.235 E17.23596
G1 X97.557 Y145.237 E18.03141
G1 X96.93 Y145.224 E18.0627
G1 X96.187 Y145.12 E18.10013
G1 X95.264 Y144.837 E18.14829
G1 X94.818 Y144.597 E18.17356
G1 X94.265 Y144.161 E18.20869
G1 X93.674 Y143.556 E18.25089
G1 X93.396 Y143.134 E18.2761
G1 X93.152 Y142.565 E18.30699
G1 X93.001 Y142.086 E18.33204
G1 X92.856 Y141.505 E18.36192
G1 X92.73 Y140.753 E18.39996
G1 X92.24 Y138.073 E18.53588
G1 X91.665 Y135.354 E18.67453
G1 X91.031 Y132.733 E18.80907
G1 X90.31 Y130.077 E18.94637
G1 X89.524 Y127.479 E19.08179
G1 X88.644 Y124.84 E19.22058
G1 X87.717 Y122.301 E19.35543
G1 X86.698 Y119.739 E19.49298
G1 X85.62 Y117.235 E19.62899
G1 X84.456 Y114.731 E19.76676
G1 X83.383 Y112.573 E19.88699
G1 X83.022 Y111.869 E19.92647
G1 X82.692 Y111.204 E19.9635
G1 X82.285 Y110.195 E20.01778
G1 X81.699 Y108.626 E20.10134
G1 X81.454 Y107.937 E20.13782
G1 X81.165 Y106.884 E20.1923
G1 X80.766 Y105.257 E20.27588
G1 X80.605 Y104.565 E20.31132
G1 X80.437 Y103.446 E20.36778
G1 X80.233 Y101.799 E20.45057
G1 X80.157 Y101.1 E20.48565
G1 X80.12 Y99.955 E20.54281
G1 X80.11 Y98.353 E20.62273
G1 X80.115 Y97.587 E20.66095
G1 X80.202 Y96.538 E20.71346
G1 X80.395 Y94.806 E20.80041
G1 X80.478 Y94.138 E20.83399
G1 X80.705 Y93.019 E20.89096
G1 X81.071 Y91.442 E20.97172
G1 X81.254 Y90.7 E21.00985
G1 X81.588 Y89.685 E21.06316
G1 X82.154 Y88.101 E21.14708
G1 X82.408 Y87.422 E21.18325
G1 X82.855 Y86.457 E21.23631
G1 X83.613 Y84.931 E21.32131
G1 X83.939 Y84.295 E21.35697
G1 X84.541 Y83.317 E21.41427
G1 X85.44 Y81.94 E21.49631
G1 X85.845 Y81.339 E21.53247
G1 X86.488 Y80.52 E21.58441
G1 X87.611 Y79.168 E21.6721
G1 X88.047 Y78.661 E21.70546
G1 F1500 E15.20546
G1 F600 Z1.3
;MESH:Extra_short_M505_Anet_A8_Nozzle.stl
G0 F3600 X95.837 Y120.914 Z1.3
;TYPE:WALL-INNER
G1 F600 Z0.3
G1 F1500 E21.70546
G1 F1950 X95.595 Y120.813 E21.71854
G1 X95.012 Y120.363 E21.75529
G1 X94.437 Y119.752 E21.79714
G1 X91.713 Y117.603 E21.97025
G1 X91.159 Y117.09 E22.00791
G1 X89.176 Y114.769 E22.16022
G1 X87.483 Y112.241 E22.31201
G1 X86.088 Y109.521 E22.46452
G1 X85.021 Y106.657 E22.617
G1 X84.299 Y103.714 E22.76818
G1 X83.924 Y100.667 E22.92134
G1 X83.905 Y97.627 E23.07301
G1 X84.243 Y94.585 E23.22571
G1 X84.931 Y91.616 E23.37776
G1 X85.961 Y88.744 E23.52998
G1 X87.317 Y86.016 E23.68197
G1 X88.978 Y83.47 E23.83363
G1 X90.939 Y81.112 E23.98663
G1 X93.146 Y79.018 E24.13842
G1 X95.592 Y77.189 E24.29079
G1 X98.226 Y75.66 E24.44274
G1 X101.026 Y74.448 E24.59496
G1 X103.952 Y73.568 E24.74739
G1 X104.722 Y73.433 E24.78639
G1 X106.955 Y73.034 E24.89956
G1 X110 Y72.858 E25.05173
G1 X112.966 Y73.028 E25.19995
G1 X115.108 Y73.392 E25.30835
G1 X115.893 Y73.532 E25.34813
G1 X117.974 Y74.133 E25.45619
G1 X118.726 Y74.361 E25.4954
G1 X120.751 Y75.199 E25.60473
G1 X121.462 Y75.507 E25.64339
G1 X123.369 Y76.563 E25.75214
G1 X124.058 Y76.964 E25.79192
G1 X125.824 Y78.22 E25.90003
G1 X126.455 Y78.694 E25.93941
G1 X128.076 Y80.147 E26.04801
G1 X128.66 Y80.703 E26.08824
G1 X130.105 Y82.325 E26.19662
G1 X130.608 Y82.928 E26.23579
G1 X131.867 Y84.711 E26.34469
G1 X132.29 Y85.361 E26.38338
G1 X133.345 Y87.282 E26.49272
G1 X133.689 Y87.975 E26.53132
G1 X134.519 Y89.994 E26.64023
G1 X134.783 Y90.731 E26.67929
G1 X135.385 Y92.84 E26.78871
G1 X135.562 Y93.61 E26.82812
G1 X135.973 Y96.135 E26.95575
G1 X136.129 Y99.051 E27.10144
G1 X135.986 Y101.666 E27.2321
G1 X135.887 Y102.453 E27.27167
G1 X135.512 Y104.606 E27.3807
G1 X135.327 Y105.354 E27.41915
G1 X134.712 Y107.459 E27.52856
G1 X134.437 Y108.19 E27.56752
G1 X133.597 Y110.197 E27.67607
G1 X133.237 Y110.895 E27.71525
G1 X132.169 Y112.807 E27.82451
G1 X131.735 Y113.453 E27.86334
G1 X130.462 Y115.231 E27.97243
G1 X129.951 Y115.826 E28.01156
G1 X128.488 Y117.447 E28.1205
G1 X127.914 Y117.975 E28.15941
G1 X126.271 Y119.426 E28.26877
G1 X125.639 Y119.885 E28.30774
G1 X123.854 Y121.138 E28.41655
G1 X123.169 Y121.52 E28.45568
G1 X121.262 Y122.563 E28.56412
G1 X120.528 Y122.866 E28.60373
G1 X118.511 Y123.69 E28.71244
G1 X117.748 Y123.906 E28.752
G1 X115.703 Y124.51 E28.85838
G1 X115.414 Y124.607 E28.87359
G1 X115.037 Y124.877 E28.89672
G1 X114.553 Y125.579 E28.93926
G1 X114.409 Y126.3 E28.97594
G1 X114.399 Y140.641 E29.69142
G1 X114.388 Y141.018 E29.71024
G1 X114.295 Y141.252 E29.7228
G1 X114.16 Y141.377 E29.73198
G1 X113.924 Y141.436 E29.74411
G1 X97.076 Y141.436 E30.58467
G1 X96.836 Y141.374 E30.59703
G1 X96.715 Y141.263 E30.60522
G1 X96.602 Y140.889 E30.62472
G1 X96.6 Y138.633 E30.73727
G1 X96.6 Y122.666 E31.53386
G1 X96.445 Y121.878 E31.57393
G1 X95.837 Y120.914 E31.63079
G0 F3600 X95.901 Y120.838
G0 X109.974 Y122.63
G0 X117.293 Y121.476
G0 X123.911 Y118.183
G0 X123.856 Y118.1
G1 F1950 X124.249 Y117.512 E31.66608
G1 X124.313 Y116.771 E31.70318
G1 X124.199 Y116.008 E31.74167
G1 X124.033 Y115.459 E31.77029
G1 X123.75 Y114.801 E31.80602
G1 X123.603 Y114.417 E31.82654
G1 X123.302 Y113.868 E31.85777
G1 X123.05 Y113.446 E31.88229
G1 X123.035 Y113.4 E31.88471
G1 X123.417 Y113.013 E31.91184
G1 X124.417 Y112.051 E31.98106
G1 X124.544 Y112.079 E31.98755
G1 X124.95 Y112.288 E32.01033
G1 X126.018 Y112.844 E32.07041
G1 X126.734 Y113.093 E32.10822
G1 X127.481 Y113.279 E32.14663
G1 X128.455 Y113.259 E32.19523
G1 X129.086 Y112.871 E32.23219
G1 X129.278 Y112.206 E32.26672
G1 X129.11 Y111.477 E32.30405
G1 X128.765 Y110.787 E32.34253
G1 X128.384 Y110.237 E32.37591
G1 X127.695 Y109.446 E32.42825
G1 X127.193 Y108.989 E32.46212
G1 X126.879 Y108.686 E32.48389
G1 X127.763 Y106.946 E32.58126
G1 X128.345 Y107.05 E32.61075
G1 X129.539 Y107.218 E32.67091
G1 X131.027 Y107.182 E32.74517
G1 X131.63 Y106.971 E32.77704
G1 X132.007 Y106.824 E32.79723
G1 X132.439 Y106.228 E32.83395
G1 X132.418 Y105.601 E32.86525
G1 X132.033 Y104.961 E32.90251
G1 X131.491 Y104.411 E32.94104
G1 X131.036 Y104.066 E32.96952
G1 X130.407 Y103.691 E33.00606
G1 X130.077 Y103.473 E33.02579
G1 X129.484 Y103.196 E33.05844
G1 X129.05 Y103.001 E33.08218
G1 X129.353 Y101.068 E33.1798
G1 X129.94 Y100.986 E33.20937
G1 X131.1 Y100.783 E33.26812
G1 X131.599 Y100.65 E33.29388
G1 X132.581 Y100.254 E33.34671
G1 X133.325 Y99.678 E33.39365
G1 X133.6 Y98.996 E33.43034
G1 X133.362 Y98.35 E33.46468
G1 X132.802 Y97.86 E33.50181
G1 X132.115 Y97.504 E33.54041
G1 X131.575 Y97.316 E33.56894
G1 X130.876 Y97.159 E33.60468
G1 X130.48 Y97.049 E33.62518
G1 X129.852 Y96.972 E33.65675
G1 X129.358 Y96.918 E33.68154
G1 X129.052 Y94.997 E33.77859
G1 X129.148 Y94.911 E33.78502
G1 X129.548 Y94.709 E33.80738
G1 X130.625 Y94.173 E33.86739
G1 X131.25 Y93.741 E33.9053
G1 X131.816 Y93.264 E33.94223
G1 X132.123 Y92.901 E33.96595
G1 X132.4 Y92.385 E33.99516
G1 X132.451 Y91.703 E34.02928
G1 X132.02 Y91.16 E34.06387
G1 X131.336 Y90.868 E34.10098
G1 X130.575 Y90.743 E34.13945
G1 X130.005 Y90.731 E34.16789
G1 X129.288 Y90.796 E34.20381
G1 X128.874 Y90.816 E34.22449
G1 X128.181 Y90.959 E34.25979
G1 X127.767 Y91.032 E34.28077
G1 X126.886 Y89.306 E34.37745
G1 X126.946 Y89.201 E34.38348
G1 X127.27 Y88.879 E34.40627
