;FLAVOR:Marlin
;TIME:2506
;Filament used: 2.78971m
;Layer height: 0.2
;MINX:71.111
;MINY:88.545
;MINZ:0.3
;MAXX:134.888
;MAXY:169.458
;MAXZ:11.5
;Generated with Cura_SteamEngine 4.5.0
M140 S60
M105
M190 S60
M104 S202
M105
M109 S202
M82 ;absolute extrusion mode
G21 ;metric values
G90 ;absolute positioning
M82 ;set extruder to absolute mode
M107 ;start with the fan off
G28 X0 Y0 ;move X/Y to min endstops
G28 Z0 ;move Z to min endstops
G1 Z15.0 F9000 ;move the platform down 15mm
G92 E0 ;zero the extruded length
G1 F200 E3 ;extrude 3mm of feed stock
G92 E0 ;zero the extruded length again
G1 F9000;Put printing message on LCD screen
;*** Single Start Tone
M300 S1000 P500 ; chirp to indicate starting to print
;*** End Single Start Tone
M117 Printing..0
G92 E0
G92 E0
G1 F1500 E-6.5
;LAYER_COUNT:52
;LAYER:0
M107
G1 F600 Z1.3
G0 F3600 X96.272 Y91.685 Z1.3
;TYPE:SKIRT
G1 F600 Z0.3
G1 F1500 E0
G1 F1950 X96.821 Y91.163 E0.03779
G1 X97.209 Y90.843 E0.06289
G1 X97.77 Y90.422 E0.09788
G1 X98.227 Y90.127 E0.12502
G1 X98.729 Y89.832 E0.15407
G1 X99.2 Y89.593 E0.18042
G1 X99.868 Y89.296 E0.21689
G1 X100.365 Y89.115 E0.24328
G1 X100.958 Y88.927 E0.27431
G1 X101.836 Y88.722 E0.31929
G1 X102.548 Y88.616 E0.35521
G1 X103.296 Y88.55 E0.39267
G1 X104.199 Y88.545 E0.43772
G1 X104.938 Y88.603 E0.4747
G1 X105.67 Y88.704 E0.51157
G1 X106.572 Y88.907 E0.5577
G1 X107.224 Y89.11 E0.59177
G1 X107.952 Y89.386 E0.63061
G1 X108.773 Y89.778 E0.676
G1 X109.352 Y90.113 E0.70937
G1 X110.005 Y90.532 E0.74808
G1 X112.328 Y91.987 E0.88483
G1 X114.655 Y93.353 E1.01945
G1 X117.069 Y94.682 E1.15693
G1 X119.474 Y95.918 E1.29183
G1 X121.958 Y97.107 E1.42923
G1 X123.945 Y97.996 E1.53783
G1 X124.553 Y98.26 E1.5709
G1 X125.46 Y98.702 E1.62123
G1 X126.079 Y99.036 E1.65633
G1 X126.628 Y99.36 E1.68813
G1 X127.269 Y99.774 E1.7262
G1 X127.831 Y100.171 E1.76053
G1 X128.411 Y100.619 E1.79709
G1 X128.903 Y101.03 E1.82907
G1 X129.511 Y101.581 E1.87001
G1 X130.084 Y102.144 E1.91009
G1 X130.892 Y103.062 E1.9711
G1 X131.457 Y103.772 E2.01637
G1 X132.051 Y104.631 E2.06847
G1 X132.491 Y105.345 E2.11032
G1 X132.867 Y106.017 E2.14873
G1 X133.151 Y106.574 E2.17993
G1 X133.432 Y107.189 E2.21366
G1 X133.707 Y107.856 E2.24965
G1 X133.964 Y108.562 E2.28714
G1 X134.171 Y109.21 E2.32108
G1 X134.336 Y109.81 E2.35212
G1 X134.505 Y110.537 E2.38936
G1 X134.654 Y111.323 E2.42927
G1 X134.741 Y111.922 E2.45947
G1 X134.813 Y112.593 E2.49314
G1 X134.867 Y113.429 E2.53493
G1 X134.888 Y114.213 E2.57406
G1 X134.827 Y115.586 E2.64263
G1 X134.664 Y116.866 E2.707
G1 X134.564 Y117.434 E2.73577
G1 X134.362 Y118.338 E2.78199
G1 X134.206 Y118.923 E2.81219
G1 X134.026 Y119.506 E2.84263
G1 X133.762 Y120.252 E2.88211
G1 X133.501 Y120.906 E2.91724
G1 X133.231 Y121.509 E2.95021
G1 X132.949 Y122.08 E2.98198
G1 X132.364 Y123.149 E3.04277
G1 X131.622 Y124.412 E3.11586
G1 X130.304 Y126.806 E3.2522
G1 X129.046 Y129.255 E3.38956
G1 X127.886 Y131.676 E3.52349
G1 X126.765 Y134.196 E3.66109
G1 X125.73 Y136.712 E3.79682
G1 X124.765 Y139.26 E3.93275
G1 X123.876 Y141.833 E4.06856
G1 X123.057 Y144.432 E4.20451
G1 X122.312 Y147.052 E4.34041
G1 X121.627 Y149.741 E4.47885
G1 X121.042 Y152.36 E4.61273
G1 X120.794 Y153.612 E4.67641
G1 X120.608 Y154.463 E4.71987
G1 X120.431 Y155.118 E4.75372
G1 X120.232 Y155.692 E4.78402
G1 X120.01 Y156.239 E4.81348
G1 X119.777 Y156.718 E4.84005
G1 X119.486 Y157.252 E4.87039
G1 X119.196 Y157.708 E4.89735
G1 X118.82 Y158.241 E4.92989
G1 X118.457 Y158.686 E4.95855
G1 X118.062 Y159.124 E4.98797
G1 X117.633 Y159.539 E5.01775
G1 X117.189 Y159.929 E5.04723
G1 X116.742 Y160.271 E5.07531
G1 X116.225 Y160.628 E5.10666
G1 X115.762 Y160.902 E5.1335
G1 X115.221 Y161.19 E5.16407
G1 X114.68 Y161.432 E5.19364
G1 X114.157 Y161.635 E5.22163
G1 X113.647 Y161.797 E5.24833
G1 X111.701 Y162.298 E5.34858
G1 X109.063 Y163.003 E5.48481
G1 X106.473 Y163.774 E5.61963
G1 X103.864 Y164.631 E5.75664
G1 X101.306 Y165.554 E5.89231
G1 X98.775 Y166.547 E6.02795
G1 X96.236 Y167.629 E6.16564
G1 X95.498 Y167.962 E6.20604
G1 X94.769 Y168.266 E6.24544
G1 X93.917 Y168.579 E6.29073
G1 X92.636 Y168.95 E6.35726
G1 X91.439 Y169.197 E6.41824
G1 X90.721 Y169.308 E6.45449
G1 X90.093 Y169.379 E6.48602
G1 X89.309 Y169.435 E6.52523
G1 X88.58 Y169.458 E6.56162
G1 X87.731 Y169.449 E6.60398
G1 X86.638 Y169.364 E6.65867
G1 X85.801 Y169.254 E6.70079
G1 X85.169 Y169.146 E6.73278
G1 X84.478 Y168.997 E6.76804
G1 X83.789 Y168.82 E6.80353
G1 X83.073 Y168.604 E6.84085
G1 X82.421 Y168.377 E6.87529
G1 X81.863 Y168.159 E6.90518
G1 X81.142 Y167.842 E6.94447
G1 X80.506 Y167.532 E6.97977
G1 X79.918 Y167.214 E7.01312
G1 X79.334 Y166.866 E7.04704
G1 X78.647 Y166.42 E7.0879
G1 X78.206 Y166.108 E7.11485
G1 X77.549 Y165.601 E7.15626
G1 X77.054 Y165.186 E7.18848
G1 X76.577 Y164.754 E7.22059
G1 X76.012 Y164.196 E7.26021
G1 X75.537 Y163.687 E7.29494
G1 X75.091 Y163.169 E7.32904
G1 X74.696 Y162.673 E7.36068
G1 X74.214 Y162.013 E7.40145
G1 X73.879 Y161.513 E7.43148
G1 X73.49 Y160.877 E7.46867
G1 X73.14 Y160.252 E7.50441
G1 X72.854 Y159.688 E7.53596
G1 X72.516 Y158.948 E7.57655
G1 X72.283 Y158.38 E7.60717
G1 X72.047 Y157.729 E7.64172
G1 X71.826 Y157.03 E7.6783
G1 X71.622 Y156.278 E7.71717
G1 X71.501 Y155.757 E7.74385
G1 X71.345 Y154.923 E7.78618
G1 X71.251 Y154.275 E7.81885
G1 X71.18 Y153.606 E7.85242
G1 X71.131 Y152.846 E7.89041
G1 X71.111 Y151.995 E7.93288
G1 X71.168 Y150.788 E7.99316
G1 X71.229 Y150.142 E8.02554
G1 X71.339 Y149.352 E8.06533
G1 X71.454 Y148.716 E8.09757
G1 X71.609 Y148.023 E8.133
G1 X71.796 Y147.318 E8.16939
G1 X71.995 Y146.675 E8.20297
G1 X72.312 Y145.782 E8.25025
G1 X72.856 Y144.544 E8.31771
G1 X73.641 Y143.091 E8.40011
G1 X74.374 Y141.841 E8.4724
G1 X75.678 Y139.473 E8.60727
G1 X76.925 Y137.054 E8.74304
G1 X78.107 Y134.589 E8.87943
G1 X79.214 Y132.102 E9.01524
G1 X80.265 Y129.551 E9.15289
G1 X81.226 Y127.022 E9.28787
G1 X82.121 Y124.439 E9.42425
G1 X82.931 Y121.871 E9.55859
G1 X83.688 Y119.214 E9.69642
G1 X84.359 Y116.582 E9.83193
G1 X84.956 Y113.921 E9.96799
G1 X85.319 Y112.107 E10.06029
G1 X85.513 Y111.331 E10.10019
G1 X85.761 Y110.567 E10.14027
G1 X85.979 Y110.042 E10.16863
G1 X86.238 Y109.494 E10.19887
G1 X86.521 Y108.99 E10.22771
G1 X87.088 Y108.077 E10.28132
G1 X88.508 Y105.77 E10.41648
G1 X89.886 Y103.382 E10.55403
G1 X91.176 Y100.992 E10.68952
G1 X92.408 Y98.548 E10.82607
G1 X93.559 Y96.093 E10.96135
G1 X93.954 Y95.198 E11.01015
G1 X94.208 Y94.648 E11.04038
G1 X94.454 Y94.149 E11.06813
G1 X94.817 Y93.528 E11.10402
G1 X95.212 Y92.933 E11.13965
G1 X95.79 Y92.201 E11.18618
G1 X96.272 Y91.685 E11.22141
G0 F3600 X96.559 Y91.964
G1 F1950 X97.077 Y91.471 E11.25709
G1 X97.77 Y90.913 E11.30148
G1 X98.345 Y90.525 E11.33608
G1 X98.913 Y90.188 E11.36903
G1 X99.368 Y89.956 E11.39451
G1 X100.006 Y89.671 E11.42937
G1 X100.493 Y89.494 E11.45523
G1 X101.056 Y89.315 E11.4847
G1 X101.921 Y89.113 E11.52902
G1 X102.6 Y89.013 E11.56326
G1 X103.305 Y88.95 E11.59857
G1 X104.195 Y88.945 E11.64297
G1 X104.9 Y89.001 E11.67826
G1 X105.59 Y89.096 E11.713
G1 X106.477 Y89.296 E11.75837
G1 X107.099 Y89.49 E11.79087
G1 X107.786 Y89.75 E11.82752
G1 X108.595 Y90.136 E11.87224
G1 X109.145 Y90.456 E11.90399
G1 X109.752 Y90.846 E11.93998
G1 X112.103 Y92.318 E12.07837
G1 X114.481 Y93.715 E12.21596
G1 X116.872 Y95.031 E12.35213
G1 X119.297 Y96.277 E12.48815
G1 X121.77 Y97.461 E12.62494
G1 X123.81 Y98.373 E12.73642
G1 X124.394 Y98.627 E12.76819
G1 X125.283 Y99.061 E12.81755
G1 X125.888 Y99.388 E12.85186
G1 X126.423 Y99.704 E12.88286
G1 X127.05 Y100.11 E12.92012
G1 X127.598 Y100.497 E12.95359
G1 X128.165 Y100.935 E12.98934
G1 X128.645 Y101.336 E13.02054
G1 X129.241 Y101.877 E13.0607
G1 X129.802 Y102.429 E13.09997
G1 X130.59 Y103.324 E13.15946
G1 X131.143 Y104.02 E13.20381
G1 X131.72 Y104.855 E13.25445
G1 X132.149 Y105.553 E13.29532
G1 X132.517 Y106.211 E13.33293
G1 X132.794 Y106.754 E13.36335
G1 X133.068 Y107.353 E13.39621
G1 X133.337 Y108.007 E13.43149
G1 X133.588 Y108.697 E13.46812
G1 X133.789 Y109.33 E13.50125
G1 X133.95 Y109.914 E13.53148
G1 X134.115 Y110.626 E13.56794
G1 X134.261 Y111.396 E13.60704
G1 X134.345 Y111.977 E13.63633
G1 X134.415 Y112.634 E13.66929
G1 X134.468 Y113.453 E13.71024
G1 X134.488 Y114.222 E13.74861
G1 X134.428 Y115.566 E13.81573
G1 X134.268 Y116.811 E13.87836
G1 X134.17 Y117.362 E13.90628
G1 X133.972 Y118.249 E13.95162
G1 X133.824 Y118.805 E13.98033
G1 X133.644 Y119.388 E14.01077
G1 X133.386 Y120.118 E14.04939
G1 X133.13 Y120.756 E14.08369
G1 X132.867 Y121.345 E14.11587
G1 X132.591 Y121.902 E14.14689
G1 X132.014 Y122.956 E14.20683
G1 X131.261 Y124.238 E14.28101
G1 X129.955 Y126.609 E14.41606
G1 X128.702 Y129.049 E14.5529
G1 X127.51 Y131.535 E14.69045
G1 X126.401 Y134.031 E14.82671
G1 X125.358 Y136.566 E14.96347
G1 X124.388 Y139.124 E15.09996
G1 X123.492 Y141.719 E15.23692
G1 X122.676 Y144.308 E15.37235
G1 X121.925 Y146.949 E15.50934
G1 X121.241 Y149.636 E15.64767
G1 X120.652 Y152.273 E15.78247
G1 X120.402 Y153.534 E15.8466
G1 X120.217 Y154.377 E15.88966
G1 X120.052 Y154.989 E15.92129
G1 X119.858 Y155.55 E15.9509
G1 X119.649 Y156.065 E15.97863
G1 X119.422 Y156.535 E16.00467
G1 X119.148 Y157.037 E16.0332
G1 X118.858 Y157.493 E16.06016
G1 X118.509 Y157.99 E16.09046
G1 X118.155 Y158.425 E16.11844
G1 X117.782 Y158.838 E16.14621
G1 X117.363 Y159.245 E16.17535
G1 X116.946 Y159.611 E16.20303
G1 X116.507 Y159.947 E16.23061
G1 X116.02 Y160.284 E16.26016
G1 X115.566 Y160.553 E16.28648
G1 X115.056 Y160.826 E16.31534
G1 X114.526 Y161.063 E16.34431
G1 X114.036 Y161.254 E16.37055
G1 X113.526 Y161.416 E16.39724
G1 X111.654 Y161.897 E16.49367
G1 X108.951 Y162.619 E16.63325
G1 X106.339 Y163.397 E16.76922
G1 X103.74 Y164.251 E16.90571
G1 X101.173 Y165.177 E17.04185
G1 X98.609 Y166.183 E17.17927
G1 X96.073 Y167.264 E17.3168
G1 X95.334 Y167.597 E17.35724
G1 X94.616 Y167.896 E17.39605
G1 X93.78 Y168.203 E17.44048
G1 X92.527 Y168.565 E17.50555
G1 X91.362 Y168.805 E17.56489
G1 X90.662 Y168.912 E17.60022
G1 X90.05 Y168.981 E17.63094
G1 X89.283 Y169.036 E17.66931
G1 X88.569 Y169.058 E17.70495
G1 X87.736 Y169.049 E17.74651
G1 X86.673 Y168.965 E17.79971
G1 X85.855 Y168.858 E17.84086
G1 X85.238 Y168.752 E17.8721
G1 X84.564 Y168.606 E17.9065
G1 X83.891 Y168.433 E17.94117
G1 X83.19 Y168.221 E17.97771
G1 X82.554 Y168 E18.0113
G1 X82.011 Y167.787 E18.0404
G1 X81.305 Y167.477 E18.07887
G1 X80.684 Y167.173 E18.11336
G1 X80.11 Y166.863 E18.14591
G1 X79.54 Y166.523 E18.17902
G1 X78.866 Y166.085 E18.21912
G1 X78.439 Y165.783 E18.24522
G1 X77.795 Y165.285 E18.28583
G1 X77.312 Y164.88 E18.31728
G1 X76.846 Y164.458 E18.34864
G1 X76.294 Y163.913 E18.38734
G1 X75.831 Y163.416 E18.42123
G1 X75.395 Y162.91 E18.45456
G1 X75.01 Y162.425 E18.48545
G1 X74.538 Y161.779 E18.52536
G1 X74.212 Y161.292 E18.5546
G1 X73.832 Y160.669 E18.59101
G1 X73.49 Y160.058 E18.62594
G1 X73.211 Y159.509 E18.65667
G1 X72.881 Y158.783 E18.69645
G1 X72.654 Y158.23 E18.72628
G1 X72.424 Y157.595 E18.75997
G1 X72.208 Y156.911 E18.79576
G1 X72.008 Y156.174 E18.83386
G1 X71.891 Y155.669 E18.85972
G1 X71.738 Y154.85 E18.90128
G1 X71.647 Y154.22 E18.93304
G1 X71.578 Y153.566 E18.96585
G1 X71.531 Y152.823 E19.00299
G1 X71.511 Y151.986 E19.04476
G1 X71.567 Y150.81 E19.1035
G1 X71.627 Y150.183 E19.13492
G1 X71.735 Y149.409 E19.17391
G1 X71.847 Y148.789 E19.20535
G1 X71.999 Y148.112 E19.23996
G1 X72.182 Y147.422 E19.27558
G1 X72.377 Y146.795 E19.30834
G1 X72.689 Y145.916 E19.35487
G1 X73.221 Y144.708 E19.42072
G1 X73.991 Y143.283 E19.50153
G1 X74.711 Y142.057 E19.57246
G1 X76.034 Y139.656 E19.70923
G1 X77.29 Y137.217 E19.8461
G1 X78.469 Y134.759 E19.98211
G1 X79.579 Y132.267 E20.11821
G1 X80.644 Y129.682 E20.25769
G1 X81.602 Y127.158 E20.39238
G1 X82.493 Y124.586 E20.52818
G1 X83.329 Y121.937 E20.66677
G1 X84.063 Y119.359 E20.80049
G1 X84.751 Y116.663 E20.93931
G1 X85.35 Y113.991 E21.07592
G1 X85.711 Y112.186 E21.16776
G1 X85.901 Y111.43 E21.20665
G1 X86.131 Y110.719 E21.24393
G1 X86.345 Y110.204 E21.27175
G1 X86.588 Y109.688 E21.30021
G1 X86.864 Y109.196 E21.32835
G1 X87.426 Y108.291 E21.3815
G1 X88.861 Y105.958 E21.51815
G1 X90.241 Y103.566 E21.65592
G1 X91.528 Y101.183 E21.79104
G1 X92.769 Y98.719 E21.92868
G1 X93.922 Y96.262 E22.06409
G1 X94.32 Y95.359 E22.11332
G1 X94.571 Y94.816 E22.14317
G1 X94.813 Y94.327 E22.17039
G1 X95.159 Y93.736 E22.20455
G1 X95.531 Y93.175 E22.23814
G1 X96.1 Y92.454 E22.28396
G1 X96.559 Y91.964 E22.31746
G1 F1500 E15.81746
G1 F600 Z1.3
;MESH:Anti_Z-Wobble_Left.stl
G0 F3600 X102.695 Y101.062 Z1.3
;TYPE:WALL-INNER
G1 F600 Z0.3
G1 F1500 E22.31746
G1 F1950 X103.173 Y101.263 E22.34333
G1 X103.681 Y101.351 E22.36905
G1 X104.2 Y101.318 E22.39499
G1 X104.695 Y101.166 E22.42083
G1 X105.14 Y100.906 E22.44654
G1 X105.516 Y100.548 E22.47244
G1 X105.797 Y100.113 E22.49828
G1 X105.971 Y99.626 E22.52408
G1 X106.028 Y99.113 E22.54983
G1 X105.965 Y98.599 E22.57567
G1 X105.785 Y98.114 E22.60147
G1 X105.498 Y97.683 E22.62731
G1 X105.12 Y97.331 E22.65308
G1 X104.672 Y97.074 E22.67885
G1 X104.175 Y96.929 E22.70467
G1 X103.658 Y96.901 E22.73051
G1 X103.148 Y96.994 E22.75637
G1 X102.674 Y97.201 E22.78217
G1 X102.261 Y97.513 E22.808
G1 X101.93 Y97.91 E22.83378
G1 X101.701 Y98.375 E22.85964
G1 X101.585 Y98.88 E22.88549
G1 X101.588 Y99.397 E22.91129
G1 X101.71 Y99.9 E22.93711
G1 X101.945 Y100.362 E22.96297
G1 X102.28 Y100.754 E22.9887
G1 X102.695 Y101.062 E23.01448
G0 F3600 X102.646 Y101.148
G0 X110.206 Y103.206
G0 X110.255 Y103.119
G1 F1950 X110.531 Y102.971 E23.0301
G1 X111.567 Y102.416 E23.08874
G1 X112.045 Y102.184 E23.11525
G1 X112.51 Y101.98 E23.14058
G1 X113.02 Y101.781 E23.16789
G1 X113.524 Y101.607 E23.19449
G1 X114.029 Y101.456 E23.22079
G1 X114.534 Y101.327 E23.24679
G1 X115.072 Y101.211 E23.27425
G1 X115.583 Y101.124 E23.30011
G1 X116.122 Y101.054 E23.32723
G1 X116.645 Y101.008 E23.35342
G1 X117.175 Y100.981 E23.3799
G1 X117.705 Y100.976 E23.40634
G1 X118.246 Y100.994 E23.43335
G1 X118.784 Y101.032 E23.46026
G1 X119.298 Y101.091 E23.48607
G1 X119.829 Y101.174 E23.51288
G1 X120.344 Y101.275 E23.53906
G1 X120.862 Y101.398 E23.56563
G1 X121.382 Y101.545 E23.59258
G1 X121.881 Y101.708 E23.61877
G1 X122.371 Y101.89 E23.64485
G1 X122.884 Y102.105 E23.6726
G1 X123.358 Y102.327 E23.69872
G1 X123.824 Y102.569 E23.72491
G1 X124.293 Y102.836 E23.75184
G1 X124.752 Y103.122 E23.77882
G1 X125.177 Y103.412 E23.80449
G1 X125.597 Y103.724 E23.83059
G1 X126.023 Y104.069 E23.85794
G1 X126.411 Y104.41 E23.88371
G1 X126.809 Y104.789 E23.91113
G1 X127.174 Y105.163 E23.9372
G1 X127.532 Y105.565 E23.96406
G1 X127.875 Y105.983 E23.99103
G1 X128.182 Y106.387 E24.01635
G1 X128.495 Y106.838 E24.04374
G1 X128.773 Y107.273 E24.06949
G1 X129.045 Y107.74 E24.09646
G1 X129.293 Y108.209 E24.12292
G1 X129.52 Y108.682 E24.1491
G1 X129.73 Y109.17 E24.1756
G1 X129.926 Y109.683 E24.203
G1 X130.093 Y110.179 E24.22911
G1 X130.241 Y110.683 E24.25532
G1 X130.37 Y111.198 E24.28181
G1 X130.479 Y111.726 E24.3087
G1 X130.564 Y112.244 E24.33489
G1 X130.629 Y112.773 E24.36148
G1 X130.673 Y113.302 E24.38797
G1 X130.696 Y113.851 E24.41538
G1 X130.698 Y114.365 E24.44102
G1 X130.677 Y114.907 E24.46808
G1 X130.637 Y115.438 E24.49465
G1 X130.572 Y115.963 E24.52104
G1 X130.488 Y116.48 E24.54717
G1 X130.379 Y117.017 E24.57451
G1 X130.255 Y117.519 E24.60031
G1 X130.107 Y118.031 E24.6269
G1 X129.935 Y118.549 E24.65413
G1 X129.751 Y119.031 E24.67987
G1 X129.535 Y119.535 E24.70723
G1 X129.303 Y120.023 E24.73418
G1 X129.068 Y120.473 E24.75951
G1 X128.802 Y120.933 E24.78602
G1 X128.503 Y121.402 E24.81377
G1 X128.205 Y121.832 E24.83987
G1 X127.878 Y122.264 E24.8669
G1 X127.552 Y122.665 E24.89269
G1 X127.204 Y123.054 E24.91872
G1 X126.823 Y123.449 E24.9461
G1 X126.445 Y123.811 E24.97222
G1 X126.043 Y124.165 E24.99894
G1 X125.637 Y124.494 E25.02501
G1 X125.21 Y124.814 E25.05163
G1 X124.767 Y125.117 E25.07841
G1 X124.31 Y125.404 E25.10533
G1 X123.856 Y125.664 E25.13143
G1 X123.375 Y125.914 E25.15848
G1 X122.903 Y126.136 E25.1845
G1 X122.405 Y126.346 E25.21147
G1 X121.907 Y126.532 E25.23799
G1 X121.408 Y126.695 E25.26418
G1 X120.884 Y126.845 E25.29137
G1 X120.371 Y126.969 E25.3177
G1 X119.866 Y127.069 E25.34338
G1 X119.322 Y127.154 E25.37085
