;FLAVOR:Marlin
;TIME:1313
;Filament used: 1.0213m
;Layer height: 0.2
;MINX:92.452
;MINY:85.2
;MINZ:0.3
;MAXX:130.684
;MAXY:138.908
;MAXZ:27.9
;Generated with Cura_SteamEngine 4.5.0
M140 S60
M105
M190 S60
M104 S202
M105
M109 S202
M82 ;absolute extrusion mode
G21 ;metric values
G90 ;absolute positioning
M82 ;set extruder to absolute mode
M107 ;start with the fan off
G28 X0 Y0 ;move X/Y to min endstops
G28 Z0 ;move Z to min endstops
G1 Z15.0 F9000 ;move the platform down 15mm
G92 E0 ;zero the extruded length
G1 F200 E3 ;extrude 3mm of feed stock
G92 E0 ;zero the extruded length again
G1 F9000;Put printing message on LCD screen
;*** Single Start Tone
M300 S1000 P500 ; chirp to indicate starting to print
;*** End Single Start Tone
M117 Printing..0
G92 E0
G92 E0
G1 F1500 E-6.5
;LAYER_COUNT:134
;LAYER:0
M107
G1 F600 Z1.3
G0 F3600 X93.931 Y87.023 Z1.3
;TYPE:SKIRT
G1 F600 Z0.3
G1 F1500 E0
G1 F1950 X94.535 Y86.466 E0.04099
G1 X94.962 Y86.141 E0.06776
G1 X95.659 Y85.757 E0.10746
G1 X96.151 Y85.544 E0.13421
G1 X96.914 Y85.337 E0.17365
G1 X97.696 Y85.229 E0.21304
G1 X98.543 Y85.206 E0.25531
G1 X99.374 Y85.2 E0.29677
G1 X117.293 Y85.2 E1.19075
G1 X117.936 Y85.209 E1.22284
G1 X118.682 Y85.272 E1.26019
G1 X119.189 Y85.36 E1.28586
G1 X119.889 Y85.568 E1.32229
G1 X120.187 Y85.686 E1.33828
G1 X120.893 Y86.06 E1.37814
G1 X121.719 Y86.673 E1.42946
G1 X122.284 Y87.285 E1.47101
G1 X122.609 Y87.712 E1.49779
G1 X122.993 Y88.408 E1.53744
G1 X123.206 Y88.9 E1.56419
G1 X123.41 Y89.653 E1.60311
G1 X123.512 Y90.315 E1.63653
G1 X123.597 Y91.716 E1.70655
G1 X123.796 Y94.494 E1.8455
G1 X124.065 Y97.183 E1.98033
G1 X124.418 Y99.923 E2.11816
G1 X124.838 Y102.59 E2.25285
G1 X125.345 Y105.309 E2.39084
G1 X125.448 Y105.82 E2.41685
G1 X125.946 Y109.699 E2.61196
G1 X126.364 Y112.36 E2.74635
G1 X126.866 Y115.049 E2.88282
G1 X127.445 Y117.731 E3.01971
G1 X128.079 Y120.317 E3.15255
G1 X128.822 Y123.009 E3.29187
G1 X129.617 Y125.603 E3.42723
G1 X129.971 Y126.65 E3.48237
G1 X130.33 Y127.765 E3.54081
G1 X130.492 Y128.42 E3.57447
G1 X130.607 Y129.053 E3.60657
G1 X130.67 Y129.702 E3.6391
G1 X130.684 Y130.309 E3.66939
G1 X130.653 Y130.991 E3.70345
G1 X130.558 Y131.694 E3.73884
G1 X130.409 Y132.401 E3.77489
G1 X130.248 Y132.953 E3.80358
G1 X130.015 Y133.576 E3.83676
G1 X129.711 Y134.222 E3.87238
G1 X129.395 Y134.785 E3.90459
G1 X129.038 Y135.318 E3.9366
G1 X128.618 Y135.849 E3.97037
G1 X128.189 Y136.321 E4.00219
G1 X127.687 Y136.792 E4.03654
G1 X127.238 Y137.153 E4.06528
G1 X126.646 Y137.565 E4.10126
G1 X126.069 Y137.9 E4.13455
G1 X125.495 Y138.175 E4.1663
G1 X124.873 Y138.422 E4.19969
G1 X124.214 Y138.624 E4.23408
G1 X123.601 Y138.76 E4.26541
G1 X122.962 Y138.858 E4.29766
G1 X122.248 Y138.908 E4.33337
G1 X121.651 Y138.902 E4.36315
G1 X121.051 Y138.869 E4.39313
G1 X118.655 Y138.694 E4.51299
G1 X115.959 Y138.573 E4.64763
G1 X113.195 Y138.527 E4.78554
G1 X110.465 Y138.56 E4.92175
G1 X107.772 Y138.667 E5.05621
G1 X104.249 Y138.908 E5.23239
G1 X103.651 Y138.902 E5.26222
G1 X102.961 Y138.85 E5.29675
G1 X102.297 Y138.745 E5.33029
G1 X101.66 Y138.589 E5.363
G1 X101.032 Y138.391 E5.39586
G1 X100.388 Y138.127 E5.43058
G1 X99.837 Y137.848 E5.46139
G1 X99.259 Y137.505 E5.49492
G1 X98.705 Y137.113 E5.52878
G1 X98.242 Y136.727 E5.55886
G1 X97.741 Y136.249 E5.5934
G1 X97.286 Y135.74 E5.62746
G1 X96.894 Y135.219 E5.65999
G1 X96.538 Y134.673 E5.69251
G1 X96.201 Y134.053 E5.72772
G1 X95.958 Y133.506 E5.75758
G1 X95.716 Y132.842 E5.79284
G1 X95.541 Y132.204 E5.82584
G1 X95.417 Y131.544 E5.85935
G1 X95.347 Y130.993 E5.88706
G1 X95.312 Y130.269 E5.92322
G1 X95.332 Y129.7 E5.95162
G1 X95.451 Y127.008 E6.08606
G1 X95.494 Y124.244 E6.22397
G1 X95.459 Y121.511 E6.36033
G1 X95.349 Y118.789 E6.49625
G1 X95.161 Y116.092 E6.63113
G1 X94.897 Y113.383 E6.76692
G1 X94.718 Y112.036 E6.83471
G1 X94.546 Y110.55 E6.90934
G1 X94.497 Y110.037 E6.93505
G1 X94.405 Y108.689 E7.00246
G1 X94.362 Y107.897 E7.04203
G1 X94.135 Y105.166 E7.17875
G1 X93.833 Y102.454 E7.31489
G1 X93.461 Y99.792 E7.44899
G1 X92.993 Y97.028 E7.58885
G1 X92.791 Y96.001 E7.64107
G1 X92.638 Y95.158 E7.68381
G1 X92.538 Y94.478 E7.7181
G1 X92.478 Y93.757 E7.7542
G1 X92.456 Y93.017 E7.79113
G1 X92.452 Y91.536 E7.86502
G1 X92.459 Y90.839 E7.8998
G1 X92.522 Y90.07 E7.93829
G1 X92.607 Y89.573 E7.96345
G1 X92.812 Y88.875 E7.99974
G1 X93.171 Y88.076 E8.04344
G1 X93.595 Y87.441 E8.08154
G1 X93.931 Y87.023 E8.10829
G0 F3600 X94.243 Y87.275
G1 F1950 X94.8 Y86.765 E8.14597
G1 X95.204 Y86.461 E8.17119
G1 X95.845 Y86.111 E8.20763
G1 X96.552 Y85.841 E8.24539
G1 X97.012 Y85.725 E8.26906
G1 X97.707 Y85.629 E8.30406
G1 X98.554 Y85.606 E8.34633
G1 X99.377 Y85.6 E8.38739
G1 X117.288 Y85.6 E9.28098
G1 X117.931 Y85.609 E9.31306
G1 X118.642 Y85.67 E9.34866
G1 X119.34 Y85.811 E9.38419
G1 X120.04 Y86.058 E9.42122
G1 X120.667 Y86.391 E9.45664
G1 X121.468 Y86.986 E9.50642
G1 X121.985 Y87.55 E9.54459
G1 X122.289 Y87.954 E9.56982
G1 X122.638 Y88.594 E9.60618
G1 X122.838 Y89.059 E9.63144
G1 X123.022 Y89.751 E9.66716
G1 X123.113 Y90.339 E9.69685
G1 X123.198 Y91.744 E9.76707
G1 X123.397 Y94.529 E9.90637
G1 X123.669 Y97.238 E10.0422
G1 X124.02 Y99.965 E10.17937
G1 X124.443 Y102.654 E10.31518
G1 X124.953 Y105.386 E10.45383
G1 X125.056 Y105.899 E10.47994
G1 X125.548 Y109.74 E10.67313
G1 X125.969 Y112.424 E10.80867
G1 X126.475 Y115.134 E10.94621
G1 X127.054 Y117.814 E11.083
G1 X127.7 Y120.447 E11.21826
G1 X128.427 Y123.086 E11.35483
G1 X129.241 Y125.742 E11.49342
G1 X129.592 Y126.778 E11.54799
G1 X129.949 Y127.888 E11.60616
G1 X130.102 Y128.509 E11.63807
G1 X130.21 Y129.098 E11.66794
G1 X130.272 Y129.735 E11.69987
G1 X130.284 Y130.31 E11.72857
G1 X130.255 Y130.944 E11.76023
G1 X130.166 Y131.615 E11.794
G1 X130.022 Y132.297 E11.82878
G1 X129.871 Y132.819 E11.85589
G1 X129.643 Y133.429 E11.88838
G1 X129.352 Y134.045 E11.92236
G1 X129.058 Y134.569 E11.95234
G1 X128.709 Y135.091 E11.98367
G1 X128.309 Y135.595 E12.01577
G1 X127.912 Y136.033 E12.04526
G1 X127.418 Y136.496 E12.07904
G1 X126.994 Y136.836 E12.10615
G1 X126.441 Y137.222 E12.1398
G1 X125.873 Y137.552 E12.17257
G1 X125.331 Y137.811 E12.20254
G1 X124.751 Y138.042 E12.23369
G1 X124.103 Y138.24 E12.26749
G1 X123.522 Y138.368 E12.29718
G1 X122.926 Y138.46 E12.32726
G1 X122.227 Y138.509 E12.36222
G1 X121.663 Y138.503 E12.39036
G1 X121.074 Y138.47 E12.41979
G1 X118.704 Y138.296 E12.53835
G1 X115.949 Y138.172 E12.67594
G1 X113.197 Y138.127 E12.81325
G1 X110.444 Y138.16 E12.95061
G1 X107.764 Y138.267 E13.08442
G1 X104.928 Y138.461 E13.22624
G1 X103.963 Y138.512 E13.27445
G1 X103.297 Y138.483 E13.30771
G1 X102.683 Y138.406 E13.33858
G1 X102.083 Y138.289 E13.36908
G1 X101.448 Y138.111 E13.40198
G1 X100.875 Y137.9 E13.43245
G1 X100.317 Y137.65 E13.46295
G1 X99.721 Y137.324 E13.49684
G1 X99.201 Y136.979 E13.52798
G1 X98.726 Y136.618 E13.55774
G1 X98.22 Y136.163 E13.59169
G1 X97.792 Y135.712 E13.62271
G1 X97.416 Y135.259 E13.65208
G1 X97.025 Y134.701 E13.68608
G1 X96.726 Y134.193 E13.71548
G1 X96.445 Y133.632 E13.74679
G1 X96.19 Y133.001 E13.78074
G1 X96.014 Y132.428 E13.81065
G1 X95.871 Y131.834 E13.84113
G1 X95.768 Y131.178 E13.87426
G1 X95.721 Y130.576 E13.90438
G1 X95.716 Y129.982 E13.93402
G1 X95.852 Y126.997 E14.0831
G1 X95.894 Y124.245 E14.22041
G1 X95.859 Y121.49 E14.35787
G1 X95.749 Y118.778 E14.49328
G1 X95.56 Y116.061 E14.62916
G1 X95.292 Y113.32 E14.76656
G1 X95.115 Y111.983 E14.83385
G1 X94.943 Y110.504 E14.90813
G1 X94.804 Y108.662 E15.00029
G1 X94.762 Y107.878 E15.03946
G1 X94.534 Y105.125 E15.17728
G1 X94.233 Y102.426 E15.31277
G1 X93.852 Y99.702 E15.44999
G1 X93.396 Y97.009 E15.58626
G1 X93.183 Y95.924 E15.64142
G1 X93.031 Y95.087 E15.68386
G1 X92.937 Y94.44 E15.71648
G1 X92.877 Y93.73 E15.75203
G1 X92.856 Y93.011 E15.78792
G1 X92.852 Y91.535 E15.86155
G1 X92.859 Y90.843 E15.89608
G1 X92.92 Y90.11 E15.93278
G1 X93.052 Y89.439 E15.96689
G1 X93.309 Y88.706 E16.00565
G1 X93.648 Y88.07 E16.0416
G1 X94.243 Y87.275 E16.09114
G1 F1500 E9.59114
G1 F600 Z1.3
;MESH:Z_axis_alignment_indicator_BASE.STL(1)
G0 F3600 X111.789 Y96.151 Z1.3
;TYPE:WALL-INNER
G1 F600 Z0.3
G1 F1500 E16.09114
G1 F1950 X112.455 Y96.337 E16.12564
G1 X114.791 Y96.35 E16.24219
G1 X115.412 Y96.261 E16.27348
G1 X115.973 Y96.014 E16.30407
G1 X116.485 Y95.592 E16.33717
G1 X116.839 Y95.09 E16.36781
G1 X117.058 Y94.465 E16.40085
G1 X117.101 Y93.854 E16.43141
G1 X116.967 Y93.203 E16.46457
G1 X116.685 Y92.658 E16.49519
G1 X116.234 Y92.172 E16.52826
G1 X115.711 Y91.849 E16.55893
G1 X115.045 Y91.663 E16.59343
G1 X112.709 Y91.65 E16.70998
G1 X112.088 Y91.739 E16.74127
G1 X111.527 Y91.986 E16.77185
G1 X111.015 Y92.408 E16.80496
G1 X110.661 Y92.91 E16.8356
G1 X110.442 Y93.535 E16.86864
G1 X110.399 Y94.146 E16.8992
G1 X110.533 Y94.797 E16.93236
G1 X110.815 Y95.342 E16.96297
G1 X111.266 Y95.828 E16.99605
G1 X111.789 Y96.151 E17.02672
G0 F3600 X111.749 Y96.242
G0 X114.793 Y96.389
G0 X115.993 Y96.048
G0 X116.874 Y95.108
G0 X118.549 Y89.652
G0 X118.595 Y89.564
G1 F1950 X118.878 Y89.759 E17.04387
G1 X119.099 Y90.008 E17.06048
G1 X119.256 Y90.307 E17.07733
G1 X119.335 Y90.63 E17.09391
G1 X119.35 Y96.843 E17.40388
G1 X119.338 Y97.354 E17.42938
G1 X119.254 Y97.696 E17.44695
G1 X119.099 Y97.992 E17.46362
G1 X118.878 Y98.241 E17.48023
G1 X118.595 Y98.436 E17.49738
G1 X118.283 Y98.555 E17.51404
G1 X117.911 Y98.6 E17.53273
G1 X98.859 Y98.6 E18.48324
G1 X98.077 Y97.505 E18.55037
G1 X97.694 Y96.924 E18.58509
G1 X97.396 Y96.377 E18.61617
G1 X97.154 Y95.823 E18.64633
G1 X96.962 Y95.262 E18.67591
G1 X96.803 Y94.637 E18.70808
G1 X96.708 Y94.071 E18.73672
G1 X96.658 Y93.454 E18.7676
G1 X96.65 Y90.849 E18.89757
G1 X96.695 Y90.467 E18.91676
G1 X96.814 Y90.155 E18.93341
G1 X97.009 Y89.872 E18.95056
G1 X97.258 Y89.651 E18.96717
G1 X97.554 Y89.496 E18.98384
G1 X97.886 Y89.414 E19.0009
G1 X99.123 Y89.4 E19.06262
G1 X117.911 Y89.4 E19.99996
G1 X118.283 Y89.445 E20.01865
G1 X118.595 Y89.564 E20.03531
G0 F3600 X118.783 Y89.207
;TYPE:WALL-OUTER
G1 F1950 X119.142 Y89.454 E20.05705
G1 X119.431 Y89.78 E20.07879
G1 X119.632 Y90.163 E20.10037
G1 X119.735 Y90.583 E20.12194
G1 X119.75 Y96.852 E20.4347
G1 X119.737 Y97.408 E20.46245
G1 X119.632 Y97.837 E20.48448
G1 X119.431 Y98.22 E20.50606
G1 X119.142 Y98.546 E20.5278
G1 X118.783 Y98.793 E20.54954
G1 X118.382 Y98.946 E20.57095
G1 X117.934 Y99 E20.59346
G1 X98.653 Y99 E21.5554
G1 X97.751 Y97.737 E21.63283
G1 X97.347 Y97.125 E21.66941
G1 X97.037 Y96.554 E21.70183
G1 X96.784 Y95.975 E21.73335
G1 X96.576 Y95.368 E21.76536
G1 X96.415 Y94.736 E21.7979
G1 X96.31 Y94.11 E21.82957
G1 X96.258 Y93.476 E21.86131
G1 X96.25 Y90.828 E21.99342
G1 X96.304 Y90.368 E22.01652
G1 X96.457 Y89.967 E22.03794
G1 X96.704 Y89.608 E22.05968
G1 X97.03 Y89.319 E22.08141
G1 X97.413 Y89.118 E22.10299
G1 X97.834 Y89.015 E22.12461
G1 X99.118 Y89 E22.18868
G1 X117.934 Y89 E23.12741
G1 X118.382 Y89.054 E23.14992
G1 X118.783 Y89.207 E23.17134
G0 F3600 X118.948 Y89.32
G0 X118.664 Y89.732
G0 X116.874 Y95.108
G0 X115.993 Y96.048
G0 X114.793 Y96.389
G0 X112.685 Y96.378
G0 X111.817 Y96.262
G0 X111.951 Y95.781
G1 F1950 X112.511 Y95.937 E23.20034
G1 X114.764 Y95.95 E23.31274
G1 X115.301 Y95.873 E23.33981
G1 X115.761 Y95.67 E23.36489
G1 X116.189 Y95.317 E23.39257
G1 X116.48 Y94.905 E23.41774
G1 X116.663 Y94.383 E23.44533
G1 X116.698 Y93.881 E23.47044
G1 X116.586 Y93.338 E23.4981
G1 X116.355 Y92.89 E23.52325
G1 X115.978 Y92.484 E23.55089
G1 X115.549 Y92.219 E23.57605
G1 X114.989 Y92.063 E23.60505
G1 X112.736 Y92.05 E23.71745
G1 X112.199 Y92.127 E23.74452
G1 X111.739 Y92.33 E23.7696
G1 X111.311 Y92.683 E23.79728
G1 X111.02 Y93.095 E23.82245
G1 X110.837 Y93.617 E23.85004
G1 X110.802 Y94.119 E23.87515
G1 X110.914 Y94.662 E23.90281
G1 X111.145 Y95.11 E23.92796
G1 X111.522 Y95.516 E23.9556
G1 X111.951 Y95.781 E23.98075
G0 F3600 X112.143 Y95.834
G0 X111.631 Y96.512
;TYPE:SKIN
G1 F1950 X112.4 Y96.727 E24.02059
G1 X114.818 Y96.74 E24.14123
G1 X115.521 Y96.639 E24.17666
G1 X116.18 Y96.349 E24.21258
G1 X116.774 Y95.859 E24.251
G1 X117.19 Y95.27 E24.28697
G1 X117.444 Y94.545 E24.3253
G1 X117.493 Y93.828 E24.36115
G1 X117.338 Y93.072 E24.39965
G1 X117.007 Y92.432 E24.4356
G1 X116.484 Y91.868 E24.47398
G1 X115.869 Y91.488 E24.51004
G1 X115.1 Y91.273 E24.54988
G1 X112.682 Y91.26 E24.67052
G1 X111.979 Y91.361 E24.70595
G1 X111.32 Y91.651 E24.74187
G1 X110.726 Y92.141 E24.78029
G1 X110.31 Y92.73 E24.81626
G1 X110.056 Y93.455 E24.85459
G1 X110.007 Y94.172 E24.89044
G1 X110.162 Y94.928 E24.92894
G1 X110.493 Y95.568 E24.96489
G1 X111.016 Y96.132 E25.00327
G1 X111.631 Y96.512 E25.03933
G0 F3600 X117.88 Y98.21
G1 F1950 X99.06 Y98.21 E25.97827
G1 X98.398 Y97.283 E26.0351
G1 X98.028 Y96.721 E26.06867
G1 X97.739 Y96.19 E26.09883
G1 X97.519 Y95.685 E26.12631
G1 X97.335 Y95.147 E26.15468
G1 X97.181 Y94.541 E26.18587
G1 X97.094 Y94.022 E26.21212
G1 X97.048 Y93.447 E26.2409
G1 X97.04 Y90.876 E26.36917
G1 X97.077 Y90.561 E26.38499
G1 X97.163 Y90.335 E26.39706
G1 X97.302 Y90.134 E26.40925
G1 X97.483 Y89.973 E26.42134
G1 X97.691 Y89.864 E26.43305
G1 X97.937 Y89.804 E26.44569
G1 X99.127 Y89.79 E26.50506
G1 X117.88 Y89.79 E27.44065
G1 X118.189 Y89.827 E27.45618
G1 X118.415 Y89.913 E27.46824
G1 X118.616 Y90.052 E27.48043
G1 X118.777 Y90.233 E27.49252
G1 X118.888 Y90.444 E27.50441
G1 X118.945 Y90.679 E27.51648
G1 X118.96 Y96.833 E27.8235
G1 X118.949 Y97.301 E27.84686
G1 X118.886 Y97.559 E27.86011
G1 X118.777 Y97.767 E27.87182
G1 X118.616 Y97.948 E27.88391
G1 X118.415 Y98.087 E27.8961
G1 X118.189 Y98.173 E27.90816
G1 X117.88 Y98.21 E27.92369
G0 F3600 X118.422 Y90.137
G1 F1950 X118.635 Y90.351 E27.93875
G0 F3600 X118.765 Y91.047
G1 F1950 X117.688 Y89.97 E28.01474
G0 F3600 X117.123 Y89.97
G1 F1950 X118.767 Y91.614 E28.13073
G0 F3600 X118.768 Y92.181
G1 F1950 X116.557 Y89.97 E28.28673
G0 F3600 X115.991 Y89.97
G1 F1950 X118.769 Y92.748 E28.48274
G0 F3600 X118.77 Y93.314
G1 F1950 X115.425 Y89.97 E28.71871
G0 F3600 X114.86 Y89.97
G1 F1950 X118.772 Y93.881 E28.99469
G0 F3600 X118.773 Y94.448
G1 F1950 X117.55 Y93.226 E29.08094
G0 F3600 X117.666 Y93.908
G1 F1950 X118.774 Y95.016 E29.15912
G0 F3600 X118.776 Y95.583
G1 F1950 X117.63 Y94.437 E29.23997
G0 F3600 X117.514 Y94.886
G1 F1950 X118.777 Y96.15 E29.32912
G0 F3600 X118.779 Y96.717
G1 F1950 X117.366 Y95.305 E29.42878
G0 F3600 X117.142 Y95.646
G1 F1950 X118.769 Y97.273 E29.54357
G0 F3600 X118.612 Y97.681
G1 F1950 X116.908 Y95.978 E29.66376
G0 F3600 X116.6 Y96.235
G1 F1950 X118.301 Y97.936 E29.78378
G0 F3600 X117.828 Y98.029
G1 F1950 X116.29 Y96.491 E29.89229
G0 F3600 X115.901 Y96.668
G1 F1950 X117.263 Y98.029 E29.98835
G0 F3600 X116.697 Y98.029
G1 F1950 X115.492 Y96.824 E30.07337
G0 F3600 X114.998 Y96.896
G1 F1950 X116.131 Y98.029 E30.15331
G0 F3600 X115.565 Y98.029
G1 F1950 X114.455 Y96.918 E30.23166
G0 F3600 X113.885 Y96.915
G1 F1950 X115 Y98.029 E30.3103
G0 F3600 X114.434 Y98.029
G1 F1950 X113.317 Y96.912 E30.38911
G0 F3600 X112.748 Y96.908
G1 F1950 X113.868 Y98.029 E30.46816
G0 F3600 X113.303 Y98.029
G1 F1950 X112.106 Y96.832 E30.55262
G1 X112.036 Y96.762
G0 F3600 X111.108 Y96.4
G1 F1950 X112.737 Y98.029 E30.66755
G0 F3600 X112.171 Y98.029
G1 F1950 X104.112 Y89.97 E31.23616
G0 F3600 X104.677 Y89.97
G1 F1950 X110.305 Y95.597 E31.63321
G1 X110.375 Y95.667
G0 F3600 X109.921 Y94.647
G1 F1950 X105.243 Y89.97 E31.96323
G0 F3600 X105.809 Y89.97
G1 F1950 X109.837 Y93.998 E32.24743
G0 F3600 X109.874 Y93.469
G1 F1950 X106.375 Y89.97 E32.4943
G0 F3600 X106.94 Y89.97
G1 F1950 X110.01 Y93.039 E32.71087
G0 F3600 X110.162 Y92.626
G1 F1950 X107.506 Y89.97 E32.89827
G0 F3600 X108.072 Y89.97
G1 F1950 X110.396 Y92.294 E33.06224
G0 F3600 X110.642 Y91.974
G1 F1950 X108.637 Y89.97 E33.20367
G0 F3600 X109.203 Y89.97
G1 F1950 X110.952 Y91.719 E33.32707
G0 F3600 X111.273 Y91.474
G1 F1950 X109.769 Y89.97 E33.43318
G0 F3600 X110.334 Y89.97
G1 F1950 X111.665 Y91.3 E33.52706
G0 F3600 X112.092 Y91.162
G1 F1950 X110.9 Y89.97 E33.61116
G0 F3600 X111.466 Y89.97
G1 F1950 X112.586 Y91.09 E33.69018
G0 F3600 X113.143 Y91.081
G1 F1950 X112.031 Y89.97 E33.76861
G0 F3600 X112.597 Y89.97
G1 F1950 X113.712 Y91.085 E33.84727
G0 F3600 X114.281 Y91.088
G1 F1950 X113.163 Y89.97 E33.92616
