;FLAVOR:Marlin
;TIME:4531
;Filament used: 3.94336m
;Layer height: 0.2
;MINX:71.745
;MINY:49.52
;MINZ:0.2
;MAXX:163.256
;MAXY:185.479
;MAXZ:8
;Generated with Cura_SteamEngine 4.6.1
M140 S65
M105
M190 S65
M104 S200
M105
M109 S200
M82 ;absolute extrusion mode
; Ender 3 Custom Start G-code
G92 E0 ; Reset Extruder
G28 ; Home all axes
G1 Z2.0 F3000 ; Move Z Axis up little to prevent scratching of Heat Bed
G1 X0.1 Y20 Z0.3 F5000.0 ; Move to start position
G1 X0.1 Y200.0 Z0.3 F1500.0 E15 ; Draw the first line
G1 X0.4 Y200.0 Z0.3 F5000.0 ; Move to side a little
G1 X0.4 Y20 Z0.3 F1500.0 E30 ; Draw the second line
G92 E0 ; Reset Extruder
G1 Z2.0 F3000 ; Move Z Axis up little to prevent scratching of Heat Bed
G1 X5 Y20 Z0.3 F5000.0 ; Move over to prevent blob squish
;*** Single Start Tone
M300 S1000 P500 ; chirp to indicate starting to print
;*** End Single Start Tone
G92 E0
G92 E0
G1 F2700 E-5
;LAYER_COUNT:40
;LAYER:0
M107
G0 F6000 X148.548 Y50.339 Z0.2
;TYPE:SKIRT
G1 F2700 E0
G1 F1200 X149.03 Y50.361 E0.01605
G1 X149.795 Y50.424 E0.04158
G1 X150.116 Y50.463 E0.05233
G1 X150.989 Y50.608 E0.08177
G1 X151.326 Y50.679 E0.09322
G1 X152.42 Y50.974 E0.13091
G1 X152.923 Y51.14 E0.14853
G1 X153.767 Y51.461 E0.17856
G1 X154.195 Y51.657 E0.19422
G1 X154.673 Y51.89 E0.2119
G1 X155.809 Y52.537 E0.25538
G1 X156.256 Y52.831 E0.27318
G1 X157.329 Y53.643 E0.31793
G1 X157.71 Y53.973 E0.3347
G1 X158.642 Y54.891 E0.37821
G1 X159.016 Y55.31 E0.39689
G1 X159.587 Y56.009 E0.42691
G1 X159.872 Y56.413 E0.44335
G1 X160.163 Y56.846 E0.46071
G1 X160.832 Y57.997 E0.50498
G1 X161.068 Y58.472 E0.52263
G1 X161.575 Y59.682 E0.56626
G1 X161.74 Y60.16 E0.58308
G1 X162.087 Y61.424 E0.62668
G1 X162.2 Y61.971 E0.64525
G1 X162.383 Y63.275 E0.68905
G1 X162.406 Y63.583 E0.69932
G1 X162.432 Y64.155 E0.71837
G1 X162.455 Y65.482 E0.76251
G1 X162.456 Y160.406 E3.91969
G1 X162.447 Y161.137 E3.94401
G1 X162.437 Y161.464 E3.95489
G1 X162.416 Y161.925 E3.97024
G1 X162.352 Y162.696 E3.99597
G1 X162.311 Y163.032 E4.00723
G1 X162.172 Y163.874 E4.03561
G1 X162.104 Y164.201 E4.04672
G1 X161.806 Y165.315 E4.08508
G1 X161.64 Y165.819 E4.10273
G1 X161.136 Y167.065 E4.14743
G1 X160.907 Y167.539 E4.16494
G1 X160.263 Y168.679 E4.20849
G1 X159.975 Y169.12 E4.22601
G1 X159.332 Y169.999 E4.26223
G1 X159.202 Y170.158 E4.26906
G1 X158.952 Y170.452 E4.28189
G1 X158.749 Y170.682 E4.2921
G1 X157.906 Y171.531 E4.33189
G1 X157.476 Y171.916 E4.35109
G1 X156.777 Y172.488 E4.38113
G1 X156.376 Y172.773 E4.39749
G1 X155.952 Y173.059 E4.4145
G1 X155.108 Y173.571 E4.44734
G1 X154.929 Y173.668 E4.45411
G1 X154.478 Y173.898 E4.47095
G1 X154.163 Y174.049 E4.48256
G1 X153.077 Y174.495 E4.52161
G1 X152.691 Y174.628 E4.53519
G1 X151.65 Y174.925 E4.5712
G1 X151.088 Y175.054 E4.59037
G1 X150.012 Y175.241 E4.6267
G1 X149.802 Y175.266 E4.63373
G1 X149.197 Y175.32 E4.65394
G1 X148.567 Y175.353 E4.67492
G1 X147.944 Y175.368 E4.69564
G1 X146.058 Y175.371 E4.75837
G1 X134.501 Y175.371 E5.14276
G1 X131.895 Y175.408 E5.22945
G1 X129.33 Y175.517 E5.31483
G1 X126.823 Y175.695 E5.39843
G1 X124.282 Y175.946 E5.48335
G1 X121.774 Y176.267 E5.56745
G1 X119.269 Y176.661 E5.65179
G1 X116.782 Y177.123 E5.73592
G1 X114.261 Y177.666 E5.8217
G1 X111.836 Y178.261 E5.90474
G1 X109.37 Y178.938 E5.9898
G1 X106.943 Y179.681 E6.07422
G1 X104.528 Y180.496 E6.15899
G1 X102.17 Y181.366 E6.24259
G1 X98.761 Y182.759 E6.36507
G1 X96.898 Y183.563 E6.43256
G1 X96.39 Y183.769 E6.45079
G1 X95.536 Y184.063 E6.48083
G1 X94.66 Y184.281 E6.51086
G1 X94.129 Y184.374 E6.52879
G1 X93.106 Y184.525 E6.56318
G1 X92.526 Y184.597 E6.58262
G1 X91.74 Y184.659 E6.60884
G1 X91.437 Y184.671 E6.61893
G1 X91.037 Y184.679 E6.63224
G1 X88.285 Y184.679 E6.72377
G1 X87.681 Y184.67 E6.74386
G1 X86.781 Y184.617 E6.77385
G1 X85.99 Y184.535 E6.80029
G1 X85.566 Y184.482 E6.81451
G1 X84.971 Y184.395 E6.83451
G1 X84.084 Y184.225 E6.86455
G1 X83.216 Y183.977 E6.89457
G1 X82.763 Y183.813 E6.91059
G1 X82.337 Y183.648 E6.92579
G1 X81.999 Y183.51 E6.93793
G1 X81.244 Y183.186 E6.96526
G1 X80.43 Y182.794 E6.99531
G1 X79.655 Y182.331 E7.02533
G1 X79.197 Y182.011 E7.04392
G1 X78.327 Y181.361 E7.08004
G1 X77.908 Y181.03 E7.0978
G1 X77.225 Y180.439 E7.12784
G1 X76.597 Y179.79 E7.15787
G1 X76.244 Y179.37 E7.17612
G1 X75.765 Y178.767 E7.20174
G1 X75.576 Y178.521 E7.21205
G1 X75.265 Y178.104 E7.22936
G1 X74.757 Y177.357 E7.2594
G1 X74.318 Y176.568 E7.28943
G1 X74.089 Y176.077 E7.30745
G1 X73.64 Y175.034 E7.34522
G1 X73.461 Y174.584 E7.36133
G1 X73.165 Y173.731 E7.39136
G1 X72.945 Y172.855 E7.4214
G1 X72.853 Y172.336 E7.43893
G1 X72.735 Y171.554 E7.46524
G1 X72.689 Y171.206 E7.47691
G1 X72.629 Y170.688 E7.49425
G1 X72.568 Y169.889 E7.52091
G1 X72.558 Y169.617 E7.52996
G1 X72.551 Y169.243 E7.5424
G1 X72.545 Y68.674 E10.88734
G1 X72.545 Y64.837 E11.01496
G1 X72.561 Y64.058 E11.04087
G1 X72.585 Y63.519 E11.05882
G1 X72.72 Y62.257 E11.10103
G1 X72.827 Y61.63 E11.12219
G1 X73.019 Y60.747 E11.15224
G1 X73.208 Y60.114 E11.17421
G1 X73.358 Y59.665 E11.18996
G1 X73.851 Y58.453 E11.23348
G1 X74.064 Y58.013 E11.24974
G1 X74.723 Y56.852 E11.29414
G1 X74.992 Y56.443 E11.31042
G1 X75.783 Y55.394 E11.35412
G1 X76.123 Y54.999 E11.37145
G1 X76.742 Y54.341 E11.4015
G1 X77.08 Y54.027 E11.41684
G1 X77.447 Y53.701 E11.43317
G1 X78.515 Y52.872 E11.47814
G1 X78.924 Y52.596 E11.49455
G1 X80.077 Y51.924 E11.53894
G1 X80.514 Y51.706 E11.55518
G1 X81.707 Y51.202 E11.59825
G1 X82.177 Y51.038 E11.61481
G1 X83.465 Y50.682 E11.65926
G1 X83.947 Y50.582 E11.67563
G1 X84.838 Y50.438 E11.70565
G1 X85.709 Y50.374 E11.7347
G1 X87.557 Y50.322 E11.79619
G1 X89.074 Y50.321 E11.84664
G1 X147.503 Y50.32 E13.79
G1 X147.644 Y50.321 E13.79469
G1 X148.548 Y50.339 E13.82476
G0 F6000 X148.566 Y49.939
G1 F1200 X149.048 Y49.961 E13.84081
G1 X149.843 Y50.027 E13.86734
G1 X150.164 Y50.066 E13.8781
G1 X151.071 Y50.217 E13.90868
G1 X151.408 Y50.288 E13.92013
G1 X152.545 Y50.594 E13.9593
G1 X153.048 Y50.76 E13.97691
G1 X153.909 Y51.086 E14.00753
G1 X154.371 Y51.298 E14.02444
G1 X154.849 Y51.531 E14.04213
G1 X156.029 Y52.203 E14.08729
G1 X156.476 Y52.497 E14.10509
G1 X157.222 Y53.036 E14.1357
G1 X157.591 Y53.341 E14.15162
G1 X157.972 Y53.671 E14.16838
G1 X158.94 Y54.624 E14.21357
G1 X159.314 Y55.043 E14.23225
G1 X159.897 Y55.756 E14.26288
G1 X160.204 Y56.189 E14.28053
G1 X160.495 Y56.622 E14.29788
G1 X160.975 Y57.408 E14.32852
G1 X161.19 Y57.819 E14.34394
G1 X161.426 Y58.294 E14.36158
G1 X161.953 Y59.551 E14.40692
G1 X162.118 Y60.029 E14.42374
G1 X162.479 Y61.344 E14.46909
G1 X162.592 Y61.891 E14.48767
G1 X162.782 Y63.246 E14.53318
G1 X162.805 Y63.554 E14.54345
G1 X162.832 Y64.148 E14.56323
G1 X162.855 Y65.482 E14.6076
G1 X162.856 Y160.406 E17.76479
G1 X162.847 Y161.143 E17.7893
G1 X162.837 Y161.482 E17.80058
G1 X162.816 Y161.943 E17.81593
G1 X162.749 Y162.745 E17.8427
G1 X162.708 Y163.081 E17.85396
G1 X162.564 Y163.955 E17.88342
G1 X162.496 Y164.282 E17.89453
G1 X162.186 Y165.44 E17.9344
G1 X162.02 Y165.944 E17.95205
G1 X161.694 Y166.805 E17.98267
G1 X161.496 Y167.239 E17.99854
G1 X161.267 Y167.713 E18.01604
G1 X160.598 Y168.898 E18.0613
G1 X160.31 Y169.339 E18.07882
G1 X159.641 Y170.253 E18.1165
G1 X159.511 Y170.412 E18.12333
G1 X159.252 Y170.716 E18.13661
G1 X159.049 Y170.946 E18.14681
G1 X158.173 Y171.829 E18.18818
G1 X157.743 Y172.214 E18.20738
G1 X157.031 Y172.798 E18.23801
G1 X156.6 Y173.105 E18.25561
G1 X156.176 Y173.391 E18.27262
G1 X155.298 Y173.923 E18.30676
G1 X155.119 Y174.02 E18.31353
G1 X154.651 Y174.259 E18.33101
G1 X154.336 Y174.41 E18.34263
G1 X153.207 Y174.873 E18.38322
G1 X152.821 Y175.006 E18.3968
G1 X151.739 Y175.315 E18.43422
G1 X151.177 Y175.444 E18.4534
G1 X150.059 Y175.639 E18.49115
G1 X149.849 Y175.664 E18.49818
G1 X149.22 Y175.72 E18.51918
G1 X148.579 Y175.753 E18.54053
G1 X147.945 Y175.768 E18.56162
G1 X146.059 Y175.771 E18.62435
G1 X134.507 Y175.771 E19.00857
G1 X131.882 Y175.808 E19.09589
G1 X129.374 Y175.915 E19.17938
G1 X126.854 Y176.093 E19.26341
G1 X124.339 Y176.342 E19.34747
G1 X121.85 Y176.661 E19.43093
G1 X119.298 Y177.062 E19.51685
G1 X116.867 Y177.514 E19.59909
G1 X114.368 Y178.052 E19.68411
G1 X111.932 Y178.649 E19.76753
G1 X109.466 Y179.327 E19.85259
G1 X107.073 Y180.06 E19.93584
G1 X104.646 Y180.878 E20.02102
G1 X102.316 Y181.738 E20.10363
G1 X98.931 Y183.121 E20.22525
G1 X97.057 Y183.93 E20.29314
G1 X96.537 Y184.141 E20.3118
G1 X95.667 Y184.442 E20.34242
G1 X94.774 Y184.666 E20.37304
G1 X94.188 Y184.769 E20.39283
G1 X92.853 Y184.962 E20.43769
G1 X92.572 Y184.995 E20.4471
G1 X91.755 Y185.059 E20.47436
G1 X91.452 Y185.071 E20.48445
G1 X91.037 Y185.079 E20.49825
G1 X88.279 Y185.079 E20.58998
G1 X87.675 Y185.07 E20.61007
G1 X86.74 Y185.014 E20.64123
G1 X85.949 Y184.932 E20.66768
G1 X85.508 Y184.877 E20.68246
G1 X84.913 Y184.79 E20.70246
G1 X84.009 Y184.618 E20.73307
G1 X83.123 Y184.367 E20.76369
G1 X82.619 Y184.186 E20.78151
G1 X82.193 Y184.021 E20.7967
G1 X81.841 Y183.878 E20.80934
G1 X81.086 Y183.554 E20.83666
G1 X80.256 Y183.154 E20.86731
G1 X79.465 Y182.685 E20.89789
G1 X78.959 Y182.333 E20.91839
G1 X78.343 Y181.877 E20.94389
G1 X78.079 Y181.675 E20.95494
G1 X77.66 Y181.344 E20.9727
G1 X76.963 Y180.742 E21.00333
G1 X76.321 Y180.082 E21.03396
G1 X75.931 Y179.619 E21.05409
G1 X75.255 Y178.76 E21.09045
G1 X74.944 Y178.343 E21.10775
G1 X74.426 Y177.582 E21.13837
G1 X73.976 Y176.779 E21.16899
G1 X73.722 Y176.237 E21.18889
G1 X73.399 Y175.495 E21.21581
G1 X73.269 Y175.182 E21.22708
G1 X73.09 Y174.732 E21.24319
G1 X72.787 Y173.862 E21.27383
G1 X72.561 Y172.97 E21.30444
G1 X72.458 Y172.396 E21.32383
G1 X72.34 Y171.614 E21.35014
G1 X72.291 Y171.252 E21.36229
G1 X72.231 Y170.734 E21.37963
G1 X72.168 Y169.903 E21.40735
G1 X72.158 Y169.631 E21.4164
G1 X72.151 Y169.243 E21.42931
G1 X72.145 Y68.674 E24.77425
G1 X72.145 Y64.831 E24.90207
G1 X72.161 Y64.04 E24.92838
G1 X72.185 Y63.501 E24.94632
G1 X72.326 Y62.19 E24.99018
G1 X72.433 Y61.563 E25.01134
G1 X72.627 Y60.663 E25.04196
G1 X72.828 Y59.987 E25.06541
G1 X72.978 Y59.538 E25.08116
G1 X73.491 Y58.278 E25.12641
G1 X73.704 Y57.838 E25.14267
G1 X74.141 Y57.028 E25.17328
G1 X74.389 Y56.632 E25.18882
G1 X74.658 Y56.223 E25.2051
G1 X75.48 Y55.133 E25.25051
G1 X75.82 Y54.738 E25.26784
G1 X76.451 Y54.067 E25.29848
G1 X76.814 Y53.728 E25.315
G1 X77.181 Y53.402 E25.33132
G1 X77.896 Y52.821 E25.36197
G1 X78.292 Y52.54 E25.37812
G1 X78.701 Y52.264 E25.39453
G1 X79.485 Y51.783 E25.42512
G1 X79.898 Y51.566 E25.44064
G1 X80.335 Y51.348 E25.45688
G1 X81.575 Y50.825 E25.50164
G1 X82.045 Y50.661 E25.5182
G1 X82.926 Y50.396 E25.5488
G1 X83.384 Y50.29 E25.56443
G1 X83.866 Y50.19 E25.5808
G1 X84.774 Y50.042 E25.6114
G1 X85.697 Y49.974 E25.64219
G1 X87.557 Y49.922 E25.70407
G1 X89.074 Y49.921 E25.75453
G1 X147.503 Y49.92 E27.69789
G1 X147.649 Y49.921 E27.70274
G1 X148.566 Y49.939 E27.73325
G0 F6000 X148.585 Y49.539
G1 F1200 X149.067 Y49.561 E27.7493
G1 X149.892 Y49.63 E27.77683
G1 X150.213 Y49.669 E27.78759
G1 X151.154 Y49.825 E27.81931
G1 X151.491 Y49.896 E27.83077
G1 X152.67 Y50.214 E27.87138
G1 X153.173 Y50.38 E27.889
G1 X154.051 Y50.712 E27.92022
G1 X154.546 Y50.938 E27.93832
G1 X155.024 Y51.171 E27.956
G1 X155.849 Y51.618 E27.98721
G1 X156.249 Y51.869 E28.00292
G1 X156.696 Y52.163 E28.02071
G1 X157.457 Y52.711 E28.0519
G1 X157.853 Y53.038 E28.06898
G1 X158.234 Y53.368 E28.08575
G1 X158.916 Y54.012 E28.11695
G1 X159.238 Y54.358 E28.13267
G1 X159.612 Y54.777 E28.15135
G1 X160.206 Y55.503 E28.18255
G1 X160.536 Y55.966 E28.20146
G1 X160.827 Y56.399 E28.21881
G1 X161.316 Y57.199 E28.25
G1 X161.548 Y57.641 E28.2666
G1 X161.784 Y58.116 E28.28424
G1 X162.165 Y58.972 E28.3154
G1 X162.331 Y59.421 E28.33132
G1 X162.496 Y59.899 E28.34814
G1 X162.764 Y60.798 E28.37934
G1 X162.871 Y61.263 E28.39521
G1 X162.984 Y61.81 E28.41379
G1 X163.134 Y62.735 E28.44496
G1 X163.18 Y63.216 E28.46103
G1 X163.203 Y63.524 E28.4713
G1 X163.232 Y64.14 E28.49181
G1 X163.255 Y65.482 E28.53646
G1 X163.256 Y160.406 E31.69364
G1 X163.247 Y161.148 E31.71832
G1 X163.237 Y161.501 E31.73007
G1 X163.216 Y161.962 E31.74542
G1 X163.146 Y162.793 E31.77315
G1 X163.105 Y163.129 E31.78441
G1 X162.956 Y164.037 E31.81502
G1 X162.888 Y164.364 E31.82612
G1 X162.566 Y165.565 E31.86748
G1 X162.4 Y166.069 E31.88513
G1 X162.069 Y166.947 E31.91634
G1 X161.857 Y167.413 E31.93337
G1 X161.628 Y167.887 E31.95087
G1 X161.184 Y168.713 E31.98207
G1 X160.933 Y169.117 E31.99788
G1 X160.645 Y169.558 E32.0154
G1 X159.951 Y170.506 E32.05448
G1 X159.821 Y170.665 E32.06131
G1 X159.552 Y170.981 E32.07511
G1 X159.349 Y171.211 E32.08532
G1 X158.44 Y172.127 E32.12824
G1 X158.01 Y172.512 E32.14743
G1 X157.285 Y173.107 E32.17863
G1 X156.823 Y173.436 E32.19749
G1 X156.399 Y173.722 E32.2145
G1 X155.489 Y174.274 E32.2499
G1 X155.31 Y174.371 E32.25668
G1 X154.824 Y174.619 E32.27482
G1 X154.509 Y174.77 E32.28644
G1 X153.337 Y175.251 E32.32858
G1 X152.951 Y175.384 E32.34216
G1 X151.829 Y175.705 E32.38097
G1 X151.267 Y175.834 E32.40015
G1 X150.106 Y176.036 E32.43935
G1 X149.896 Y176.061 E32.44638
G1 X149.244 Y176.119 E32.46815
G1 X148.591 Y176.153 E32.4899
G1 X147.945 Y176.168 E32.51139
G1 X146.059 Y176.171 E32.57412
G1 X134.513 Y176.171 E32.95814
G1 X131.905 Y176.208 E33.04489
G1 X129.384 Y176.315 E33.12882
G1 X126.889 Y176.492 E33.21201
G1 X124.389 Y176.74 E33.29557
G1 X121.896 Y177.059 E33.37916
G1 X119.403 Y177.45 E33.46309
G1 X116.913 Y177.913 E33.54733
G1 X114.45 Y178.443 E33.63112
G1 X112.054 Y179.031 E33.71318
G1 X109.584 Y179.71 E33.79838
G1 X107.181 Y180.446 E33.88197
G1 X104.796 Y181.25 E33.96568
G1 X102.461 Y182.111 E34.04845
G1 X99.04 Y183.509 E34.17137
G1 X96.899 Y184.428 E34.24886
G1 X96.684 Y184.513 E34.25655
G1 X95.798 Y184.82 E34.28774
G1 X94.889 Y185.051 E34.31894
G1 X94.246 Y185.165 E34.34066
G1 X92.9 Y185.359 E34.38589
G1 X92.619 Y185.392 E34.3953
G1 X91.771 Y185.458 E34.42359
G1 X91.468 Y185.47 E34.43367
G1 X91.037 Y185.479 E34.44801
G1 X88.273 Y185.479 E34.53994
G1 X87.669 Y185.47 E34.56003
G1 X86.699 Y185.412 E34.59235
G1 X85.908 Y185.33 E34.6188
G1 X85.451 Y185.273 E34.63412
G1 X84.856 Y185.186 E34.65412
G1 X83.934 Y185.011 E34.68533
G1 X83.031 Y184.758 E34.71652
G1 X82.474 Y184.559 E34.7362
G1 X82.048 Y184.394 E34.75139
G1 X81.683 Y184.246 E34.76449
G1 X80.928 Y183.922 E34.79182
G1 X80.083 Y183.515 E34.82301
G1 X79.275 Y183.038 E34.85422
G1 X78.721 Y182.654 E34.87664
G1 X77.831 Y181.989 E34.91359
G1 X77.412 Y181.658 E34.93135
G1 X76.702 Y181.045 E34.96255
G1 X76.046 Y180.375 E34.99374
G1 X75.618 Y179.868 E35.01581
G1 X74.934 Y178.999 E35.05259
G1 X74.623 Y178.582 E35.06989
G1 X74.095 Y177.807 E35.10108
G1 X73.635 Y176.99 E35.13226
G1 X73.355 Y176.396 E35.15411
G1 X73.032 Y175.654 E35.18102
G1 X72.897 Y175.33 E35.1927
G1 X72.718 Y174.88 E35.2088
G1 X72.409 Y173.994 E35.24001
G1 X72.176 Y173.086 E35.27119
G1 X72.062 Y172.455 E35.29252
G1 X71.944 Y171.673 E35.31882
G1 X71.894 Y171.298 E35.33141
G1 X71.834 Y170.78 E35.34875
G1 X71.768 Y169.918 E35.3775
G1 X71.758 Y169.646 E35.38656
G1 X71.751 Y169.243 E35.39996
G1 X71.745 Y68.674 E38.7449
G1 X71.745 Y64.825 E38.87292
G1 X71.752 Y64.35 E38.88872
G1 X71.762 Y64.023 E38.8996
G1 X71.786 Y63.484 E38.91755
G1 X71.932 Y62.123 E38.96307
G1 X72.039 Y61.496 E38.98423
G1 X72.236 Y60.579 E39.01542
G1 X72.449 Y59.861 E39.04033
G1 X72.599 Y59.412 E39.05608
G1 X72.934 Y58.535 E39.0873
G1 X73.131 Y58.104 E39.10306
G1 X73.344 Y57.664 E39.11932
G1 X73.788 Y56.838 E39.15051
G1 X74.055 Y56.412 E39.16724
G1 X74.324 Y56.003 E39.18352
G1 X74.872 Y55.243 E39.21468
G1 X75.177 Y54.872 E39.23066
G1 X75.517 Y54.477 E39.24799
G1 X76.159 Y53.793 E39.27919
G1 X76.549 Y53.429 E39.29693
G1 X76.916 Y53.103 E39.31326
G1 X77.643 Y52.511 E39.34444
G1 X78.068 Y52.209 E39.36178
G1 X78.477 Y51.933 E39.3782
G1 X79.276 Y51.442 E39.40939
G1 X79.72 Y51.208 E39.42608
G1 X80.157 Y50.99 E39.44232
G1 X81.443 Y50.447 E39.48875
G1 X81.913 Y50.283 E39.50531
G1 X82.811 Y50.012 E39.53651
G1 X83.302 Y49.898 E39.55327
G1 X83.784 Y49.798 E39.56964
G1 X84.71 Y49.647 E39.60085
G1 X85.685 Y49.574 E39.63337
G1 X87.557 Y49.522 E39.69566
G1 X89.074 Y49.521 E39.74611
G1 X147.503 Y49.52 E41.68947
G1 X147.655 Y49.521 E41.69452
