;FLAVOR:Marlin
;TIME:3831
;Filament used: 4.32551m
;Layer height: 0.2
;MINX:61.304
;MINY:87.475
;MINZ:0.3
;MAXX:155.659
;MAXY:170.282
;MAXZ:10.9
;Generated with Cura_SteamEngine 4.5.0
M140 S60
M105
M190 S60
M104 S202
M105
M109 S202
M82 ;absolute extrusion mode
G21 ;metric values
G90 ;absolute positioning
M82 ;set extruder to absolute mode
M107 ;start with the fan off
G28 X0 Y0 ;move X/Y to min endstops
G28 Z0 ;move Z to min endstops
G1 Z15.0 F9000 ;move the platform down 15mm
G92 E0 ;zero the extruded length
G1 F200 E3 ;extrude 3mm of feed stock
G92 E0 ;zero the extruded length again
G1 F9000;Put printing message on LCD screen
;*** Single Start Tone
M300 S1000 P500 ; chirp to indicate starting to print
;*** End Single Start Tone
M117 Printing..0
G92 E0
G92 E0
G1 F1500 E-6.5
;LAYER_COUNT:49
;LAYER:0
M107
G1 F600 Z1.3
G0 F3600 X76.009 Y90.362 Z1.3
;TYPE:SKIRT
G1 F600 Z0.3
G1 F1500 E0
G1 F1950 X76.434 Y90.02 E0.02722
G1 X76.948 Y89.647 E0.0589
G1 X77.894 Y89.06 E0.11444
G1 X78.362 Y88.806 E0.14101
G1 X78.86 Y88.57 E0.1685
G1 X79.335 Y88.367 E0.19428
G1 X79.965 Y88.135 E0.22777
G1 X80.977 Y87.84 E0.28036
G1 X81.536 Y87.712 E0.30897
G1 X82.159 Y87.607 E0.34049
G1 X83.23 Y87.502 E0.39418
G1 X83.867 Y87.475 E0.42599
G1 X84.474 Y87.484 E0.45627
G1 X85.449 Y87.565 E0.50508
G1 X86.065 Y87.66 E0.53618
G1 X86.694 Y87.783 E0.56816
G1 X88.806 Y88.289 E0.67651
G1 X91.493 Y88.856 E0.81351
G1 X94.215 Y89.35 E0.95153
G1 X96.883 Y89.758 E1.08619
G1 X99.606 Y90.094 E1.22307
G1 X102.35 Y90.356 E1.36059
G1 X105.063 Y90.536 E1.49624
G1 X107.816 Y90.643 E1.63369
G1 X110.569 Y90.67 E1.77104
G1 X113.251 Y90.621 E1.90487
G1 X116.033 Y90.491 E2.04382
G1 X118.749 Y90.287 E2.1797
G1 X121.455 Y90.007 E2.31543
G1 X124.209 Y89.644 E2.45401
G1 X126.872 Y89.215 E2.58858
G1 X129.583 Y88.7 E2.72625
G1 X130.712 Y88.468 E2.78376
G1 X131.527 Y88.327 E2.82502
G1 X132.604 Y88.222 E2.87901
G1 X133.242 Y88.195 E2.91087
G1 X133.848 Y88.204 E2.9411
G1 X134.825 Y88.285 E2.99001
G1 X135.439 Y88.38 E3.02101
G1 X136.01 Y88.495 E3.05007
G1 X136.648 Y88.658 E3.08292
G1 X137.138 Y88.804 E3.10843
G1 X137.678 Y88.997 E3.13704
G1 X138.159 Y89.189 E3.16288
G1 X138.794 Y89.483 E3.19779
G1 X139.678 Y89.971 E3.24817
G1 X140.176 Y90.284 E3.27751
G1 X140.652 Y90.622 E3.30664
G1 X141.128 Y90.987 E3.33656
G1 X141.616 Y91.406 E3.36865
G1 X142.282 Y92.059 E3.41518
G1 X142.706 Y92.535 E3.44699
G1 X143.079 Y92.996 E3.47657
G1 X143.479 Y93.547 E3.51054
G1 X144.024 Y94.419 E3.56184
G1 X144.302 Y94.929 E3.59082
G1 X144.554 Y95.46 E3.62015
G1 X144.771 Y95.97 E3.6478
G1 X145.237 Y97.237 E3.71515
G1 X146.231 Y99.832 E3.85379
G1 X147.28 Y102.356 E3.99015
G1 X148.416 Y104.883 E4.12838
G1 X149.59 Y107.309 E4.26284
G1 X150.861 Y109.756 E4.40041
G1 X152.194 Y112.154 E4.53728
G1 X153.585 Y114.499 E4.67331
G1 X154.942 Y116.645 E4.79998
G1 X155.224 Y117.178 E4.83007
G1 X155.453 Y117.769 E4.86169
G1 X155.58 Y118.259 E4.88694
G1 X155.648 Y119.583 E4.95309
G1 X155.659 Y122.277 E5.08749
G1 X155.652 Y123.059 E5.12651
G1 X155.481 Y124.924 E5.21994
G1 X155.257 Y127.701 E5.35894
G1 X155.113 Y130.449 E5.49622
G1 X155.042 Y134.127 E5.67975
G1 X155.042 Y136.862 E5.8162
G1 X155.033 Y137.51 E5.84854
G1 X154.916 Y138.435 E5.89505
G1 X154.795 Y138.926 E5.92028
G1 X154.551 Y139.479 E5.95044
G1 X154.26 Y139.99 E5.97977
G1 X152.792 Y142.331 E6.11763
G1 X151.419 Y144.665 E6.25273
G1 X150.081 Y147.096 E6.39117
G1 X148.841 Y149.506 E6.52638
G1 X147.657 Y151.978 E6.66313
G1 X146.541 Y154.488 E6.80017
G1 X145.5 Y157.017 E6.93662
G1 X144.738 Y159.073 E7.04601
G1 X144.272 Y160.3 E7.11149
G1 X143.966 Y161.04 E7.15144
G1 X143.459 Y162.049 E7.20778
G1 X142.913 Y162.937 E7.25979
G1 X142.581 Y163.41 E7.28862
G1 X142.17 Y163.929 E7.32165
G1 X141.444 Y164.724 E7.37536
G1 X140.645 Y165.461 E7.42959
G1 X139.685 Y166.193 E7.48982
G1 X138.751 Y166.775 E7.54472
G1 X138.295 Y167.022 E7.57059
G1 X137.743 Y167.285 E7.6011
G1 X137.268 Y167.487 E7.62685
G1 X136.702 Y167.696 E7.65695
G1 X136.207 Y167.856 E7.68291
G1 X135.578 Y168.023 E7.71538
G1 X134.521 Y168.227 E7.76908
G1 X133.403 Y168.341 E7.82515
G1 X132.772 Y168.368 E7.85666
G1 X132.186 Y168.361 E7.8859
G1 X131.623 Y168.326 E7.91404
G1 X130.98 Y168.252 E7.94633
G1 X130.45 Y168.165 E7.97313
G1 X127.962 Y167.721 E8.09921
G1 X125.256 Y167.317 E8.23571
G1 X122.544 Y166.99 E8.37199
G1 X119.804 Y166.738 E8.50927
G1 X117.059 Y166.564 E8.64649
G1 X114.342 Y166.469 E8.78213
G1 X111.588 Y166.45 E8.91953
G1 X108.872 Y166.508 E9.05506
G1 X106.122 Y166.645 E9.19243
G1 X103.411 Y166.858 E9.3281
G1 X100.669 Y167.15 E9.46567
G1 X97.98 Y167.514 E9.60105
G1 X95.26 Y167.961 E9.73857
G1 X92.559 Y168.483 E9.87582
G1 X89.922 Y169.072 E10.01062
G1 X87.414 Y169.703 E10.13965
G1 X86.572 Y169.927 E10.18311
G1 X86.046 Y170.046 E10.21002
G1 X85.462 Y170.145 E10.23957
G1 X84.337 Y170.257 E10.29597
G1 X83.721 Y170.282 E10.32673
G1 X83.121 Y170.273 E10.35667
G1 X82.612 Y170.242 E10.38211
G1 X81.992 Y170.172 E10.41324
G1 X81.443 Y170.083 E10.44099
G1 X80.939 Y169.979 E10.46666
G1 X80.317 Y169.82 E10.49869
G1 X79.815 Y169.671 E10.52482
G1 X79.294 Y169.486 E10.5524
G1 X78.816 Y169.294 E10.5781
G1 X78.193 Y169.005 E10.61236
G1 X77.276 Y168.5 E10.66459
G1 X76.799 Y168.2 E10.6927
G1 X76.315 Y167.857 E10.7223
G1 X75.811 Y167.47 E10.754
G1 X75.369 Y167.091 E10.78305
G1 X74.993 Y166.74 E10.80871
G1 X74.545 Y166.273 E10.841
G1 X74.189 Y165.861 E10.86816
G1 X73.864 Y165.456 E10.89407
G1 X73.497 Y164.949 E10.92529
G1 X73.218 Y164.531 E10.95037
G1 X72.905 Y164.003 E10.98099
G1 X72.663 Y163.553 E11.00648
G1 X72.394 Y162.986 E11.03779
G1 X72.197 Y162.523 E11.06289
G1 X71.711 Y161.2 E11.13321
G1 X70.733 Y158.647 E11.26961
G1 X69.677 Y156.107 E11.40684
G1 X68.562 Y153.628 E11.54245
G1 X67.366 Y151.156 E11.67946
G1 X66.103 Y148.723 E11.81622
G1 X64.769 Y146.324 E11.95317
G1 X63.379 Y143.98 E12.08913
G1 X62.039 Y141.862 E12.21417
G1 X61.766 Y141.356 E12.24285
G1 X61.506 Y140.694 E12.27833
G1 X61.38 Y140.204 E12.30358
G1 X61.315 Y138.851 E12.37116
G1 X61.304 Y136.141 E12.50636
G1 X61.311 Y135.41 E12.54283
G1 X61.37 Y134.452 E12.59072
G1 X61.472 Y133.177 E12.65453
G1 X61.616 Y130.426 E12.79196
G1 X61.682 Y127.708 E12.92761
G1 X61.67 Y124.977 E13.06386
G1 X61.628 Y123.835 E13.12087
G1 X61.589 Y122.05 E13.20995
G1 X61.588 Y118.972 E13.36351
G1 X61.597 Y118.331 E13.39549
G1 X61.712 Y117.413 E13.44165
G1 X61.833 Y116.922 E13.46688
G1 X62.08 Y116.363 E13.49737
G1 X62.377 Y115.842 E13.52729
G1 X63.838 Y113.512 E13.66449
G1 X65.211 Y111.178 E13.79959
G1 X66.549 Y108.747 E13.93803
G1 X67.789 Y106.337 E14.07325
G1 X68.967 Y103.878 E14.20928
G1 X70.096 Y101.341 E14.34782
G1 X71.133 Y98.82 E14.48381
G1 X72.097 Y96.277 E14.6195
G1 X72.325 Y95.633 E14.65358
G1 X72.669 Y94.794 E14.69882
G1 X73.141 Y93.851 E14.75143
G1 X73.427 Y93.353 E14.78008
G1 X73.758 Y92.845 E14.81033
G1 X74.049 Y92.434 E14.83545
G1 X74.46 Y91.915 E14.86848
G1 X75.185 Y91.122 E14.92209
G1 X75.568 Y90.747 E14.94883
G1 X76.009 Y90.362 E14.97804
G1 F1500 E8.47804
G1 F600 Z1.3
;MESH:bodenverbindung_improved.stl(3)
G0 F3600 X94.575 Y117.738 Z1.3
;TYPE:WALL-INNER
G1 F600 Z0.3
G1 F1500 E14.97804
G1 F1950 X101.89 Y117.76 E15.34298
G1 X102.115 Y117.798 E15.35437
G1 X102.289 Y117.898 E15.36438
G1 X102.405 Y118.034 E15.3733
G1 X102.472 Y118.22 E15.38316
G1 X102.485 Y121.51 E15.5473
G1 X102.485 Y121.71 E15.55728
G1 X102.285 Y121.71 E15.56374
G1 X89.388 Y121.71 E16.20718
G1 X89.388 Y99.792 E17.30067
G1 X89.353 Y99.229 E17.32881
G1 X89.244 Y98.581 E17.36159
G1 X89.055 Y97.943 E17.39479
G1 X88.79 Y97.333 E17.42797
G1 X88.452 Y96.761 E17.46112
G1 X88.049 Y96.233 E17.49426
G1 X87.582 Y95.758 E17.52749
G1 X87.095 Y95.371 E17.55852
G1 X86.531 Y95.019 E17.59169
G1 X85.929 Y94.74 E17.6248
G1 X85.3 Y94.534 E17.65782
G1 X84.646 Y94.407 E17.69105
G1 X83.983 Y94.361 E17.72421
G1 X83.361 Y94.395 E17.75529
G1 X82.708 Y94.504 E17.78832
G1 X82.071 Y94.693 E17.82147
G1 X81.462 Y94.957 E17.85458
G1 X80.888 Y95.296 E17.88784
G1 X80.362 Y95.7 E17.92093
G1 X79.887 Y96.166 E17.95413
G1 X79.499 Y96.654 E17.98523
G1 X79.149 Y97.215 E18.01822
G1 X78.868 Y97.819 E18.05146
G1 X78.662 Y98.449 E18.08452
G1 X78.536 Y99.101 E18.11765
G1 X78.49 Y99.749 E18.15006
G1 X78.488 Y121.71 E19.2457
G1 X65.388 Y121.71 E19.89927
G1 X65.388 Y118.369 E20.06595
G1 X65.434 Y118.114 E20.07888
G1 X65.525 Y117.96 E20.0878
G1 X65.66 Y117.845 E20.09665
G1 X65.85 Y117.776 E20.10673
G1 X72.974 Y117.76 E20.46215
G1 X73.516 Y117.696 E20.48938
G1 X74.061 Y117.492 E20.51841
G1 X74.531 Y117.176 E20.54667
G1 X74.925 Y116.751 E20.57558
G1 X75.209 Y116.241 E20.6047
G1 X75.366 Y115.671 E20.6342
G1 X75.388 Y99.837 E21.42416
G1 X75.425 Y99.009 E21.46551
G1 X75.528 Y98.269 E21.50279
G1 X75.71 Y97.486 E21.54289
G1 X75.96 Y96.735 E21.58238
G1 X76.268 Y96.033 E21.62063
G1 X76.645 Y95.348 E21.65964
G1 X77.083 Y94.701 E21.69862
G1 X77.586 Y94.088 E21.73818
G1 X78.124 Y93.542 E21.77642
G1 X78.734 Y93.027 E21.81625
G1 X79.367 Y92.586 E21.85474
G1 X80.051 Y92.198 E21.89397
G1 X80.761 Y91.875 E21.93288
G1 X81.51 Y91.615 E21.97244
G1 X82.258 Y91.429 E22.01089
G1 X83.031 Y91.312 E22.0499
G1 X83.82 Y91.265 E22.08933
G1 X84.398 Y91.274 E22.11817
G1 X85.034 Y91.332 E22.15003
G1 X85.814 Y91.471 E22.18956
G1 X86.575 Y91.68 E22.22893
G1 X87.301 Y91.952 E22.26761
G1 X88.006 Y92.295 E22.30673
G1 X88.684 Y92.703 E22.3462
G1 X89.304 Y93.159 E22.3846
G1 X89.742 Y93.534 E22.41337
G1 X90.217 Y94.008 E22.44685
G1 X90.716 Y94.598 E22.4854
G1 X91.157 Y95.231 E22.52389
G1 X91.555 Y95.931 E22.56406
G1 X91.872 Y96.629 E22.60231
G1 X92.132 Y97.378 E22.64186
G1 X92.316 Y98.118 E22.6799
G1 X92.436 Y98.911 E22.71992
G1 X92.483 Y99.69 E22.75885
G1 X92.488 Y115.346 E23.53993
G1 X92.552 Y115.887 E23.56711
G1 X92.756 Y116.432 E23.59615
G1 X93.072 Y116.902 E23.6244
G1 X93.497 Y117.297 E23.65335
G1 X94.007 Y117.58 E23.68245
G1 X94.575 Y117.738 E23.71186
G0 F3600 X94.63 Y117.338
;TYPE:WALL-OUTER
G1 F1950 X101.922 Y117.36 E24.07566
G1 X102.253 Y117.416 E24.09241
G1 X102.549 Y117.587 E24.10946
G1 X102.756 Y117.829 E24.12535
G1 X102.872 Y118.149 E24.14233
G1 X102.887 Y121.91 E24.32997
G1 X102.887 Y122.11 E24.33995
G1 X102.687 Y122.11 E24.34641
G1 X88.988 Y122.11 E25.02986
G1 X88.988 Y99.804 E26.14271
G1 X88.955 Y99.275 E26.16915
G1 X88.854 Y98.671 E26.1997
G1 X88.678 Y98.08 E26.23047
G1 X88.433 Y97.515 E26.26119
G1 X88.12 Y96.985 E26.2919
G1 X87.746 Y96.496 E26.32261
G1 X87.314 Y96.056 E26.35338
G1 X86.864 Y95.698 E26.38207
G1 X86.34 Y95.372 E26.41286
G1 X85.782 Y95.113 E26.44355
G1 X85.199 Y94.922 E26.47415
G1 X84.594 Y94.804 E26.50491
G1 X83.98 Y94.762 E26.53561
G1 X83.405 Y94.793 E26.56434
G1 X82.798 Y94.894 E26.59504
G1 X82.208 Y95.07 E26.62576
G1 X81.644 Y95.314 E26.65641
G1 X81.112 Y95.628 E26.68723
G1 X80.625 Y96.002 E26.71787
G1 X80.185 Y96.434 E26.74863
G1 X79.826 Y96.885 E26.77739
G1 X79.501 Y97.406 E26.80803
G1 X79.241 Y97.966 E26.83883
G1 X79.05 Y98.55 E26.86948
G1 X78.933 Y99.153 E26.90013
G1 X78.89 Y99.763 E26.93064
G1 X78.888 Y122.11 E28.04553
G1 X64.988 Y122.11 E28.73901
G1 X64.988 Y118.33 E28.92759
G1 X65.053 Y117.973 E28.9457
G1 X65.213 Y117.701 E28.96144
G1 X65.457 Y117.493 E28.97744
G1 X65.778 Y117.376 E28.99448
G1 X72.95 Y117.36 E29.35229
G1 X73.421 Y117.304 E29.37596
G1 X73.877 Y117.134 E29.40024
G1 X74.269 Y116.87 E29.42382
G1 X74.599 Y116.514 E29.44803
G1 X74.836 Y116.088 E29.47235
G1 X74.966 Y115.617 E29.49673
G1 X74.988 Y99.819 E30.2849
G1 X75.026 Y98.979 E30.32685
G1 X75.135 Y98.189 E30.36663
G1 X75.324 Y97.379 E30.40813
G1 X75.584 Y96.596 E30.44929
G1 X75.908 Y95.857 E30.48955
G1 X76.304 Y95.139 E30.53046
G1 X76.764 Y94.459 E30.57142
G1 X77.29 Y93.818 E30.61278
G1 X77.852 Y93.248 E30.65272
G1 X78.488 Y92.711 E30.69425
G1 X79.152 Y92.248 E30.73463
G1 X79.871 Y91.84 E30.77588
G1 X80.612 Y91.503 E30.81649
G1 X81.392 Y91.232 E30.85769
G1 X82.178 Y91.037 E30.89809
G1 X82.991 Y90.914 E30.93911
G1 X83.815 Y90.865 E30.98029
G1 X84.414 Y90.874 E31.01018
G1 X85.094 Y90.936 E31.04425
G1 X85.904 Y91.08 E31.08529
G1 X86.699 Y91.299 E31.12643
G1 X87.459 Y91.584 E31.16693
G1 X88.201 Y91.944 E31.20807
G1 X88.899 Y92.365 E31.24874
G1 X89.555 Y92.847 E31.28935
G1 X90.016 Y93.242 E31.31964
G1 X90.506 Y93.731 E31.35418
G1 X91.037 Y94.359 E31.39521
G1 X91.498 Y95.021 E31.43545
G1 X91.908 Y95.742 E31.47683
G1 X92.245 Y96.485 E31.51753
G1 X92.515 Y97.263 E31.55862
G1 X92.71 Y98.046 E31.59888
G1 X92.833 Y98.86 E31.63995
G1 X92.883 Y99.69 E31.68143
G1 X92.888 Y115.322 E32.46132
G1 X92.944 Y115.792 E32.48493
G1 X93.114 Y116.248 E32.50921
G1 X93.378 Y116.64 E32.53279
G1 X93.734 Y116.971 E32.55704
G1 X94.16 Y117.207 E32.58134
G1 X94.63 Y117.338 E32.60568
G0 F3600 X94.83 Y117.338
G0 X94.521 Y118.128
;TYPE:SKIN
G1 F1950 X101.86 Y118.15 E32.97183
G1 X101.979 Y118.17 E32.97785
G1 X102.036 Y118.203 E32.98113
G1 X102.061 Y118.233 E32.98308
G1 X102.082 Y118.29 E32.98611
G1 X102.093 Y121.32 E33.13728
G1 X89.778 Y121.32 E33.75168
G1 X89.778 Y99.78 E34.82631
G1 X89.741 Y99.184 E34.8561
G1 X89.624 Y98.493 E34.89107
G1 X89.422 Y97.809 E34.92665
G1 X89.138 Y97.155 E34.96222
G1 X88.776 Y96.543 E34.9977
G1 X88.344 Y95.977 E35.03322
G1 X87.843 Y95.468 E35.06885
G1 X87.321 Y95.051 E35.10218
G1 X86.716 Y94.676 E35.1377
G1 X86.072 Y94.377 E35.17312
G1 X85.398 Y94.156 E35.20851
G1 X84.697 Y94.019 E35.24414
G1 X83.985 Y93.971 E35.27974
G1 X83.318 Y94.007 E35.31307
G1 X82.62 Y94.124 E35.34838
G1 X81.938 Y94.326 E35.38386
G1 X81.285 Y94.608 E35.41935
G1 X80.669 Y94.972 E35.45505
G1 X80.106 Y95.405 E35.49048
G1 X79.597 Y95.904 E35.52604
G1 X79.179 Y96.428 E35.55948
G1 X78.806 Y97.029 E35.59477
G1 X78.505 Y97.675 E35.63033
G1 X78.284 Y98.351 E35.66581
G1 X78.148 Y99.05 E35.70134
G1 X78.1 Y99.735 E35.7356
G1 X78.098 Y121.32 E36.81248
G1 X65.778 Y121.32 E37.42713
G1 X65.778 Y118.405 E37.57256
G1 X65.806 Y118.253 E37.58027
G1 X65.828 Y118.214 E37.5825
G1 X65.861 Y118.187 E37.58463
G1 X65.917 Y118.166 E37.58761
G1 X72.997 Y118.15 E37.94083
G1 X73.608 Y118.078 E37.97153
G1 X74.24 Y117.841 E38.0052
G1 X74.786 Y117.474 E38.03802
G1 X75.243 Y116.981 E38.07156
G1 X75.572 Y116.389 E38.10535
G1 X75.756 Y115.724 E38.13978
G1 X75.778 Y99.855 E38.93148
G1 X75.815 Y99.034 E38.97249
G1 X75.912 Y98.343 E39.0073
G1 X76.086 Y97.591 E39.04581
G1 X76.327 Y96.868 E39.08383
G1 X76.619 Y96.203 E39.12006
G1 X76.972 Y95.561 E39.15661
G1 X77.393 Y94.939 E39.19409
G1 X77.888 Y94.336 E39.23301
G1 X78.376 Y93.84 E39.26772
G1 X78.974 Y93.335 E39.30677
G1 X79.574 Y92.917 E39.34325
G1 X80.227 Y92.547 E39.3807
G1 X80.913 Y92.235 E39.4183
G1 X81.623 Y91.989 E39.45578
G1 X82.326 Y91.813 E39.49194
G1 X83.068 Y91.702 E39.52937
G1 X83.837 Y91.655 E39.56781
G1 X84.383 Y91.664 E39.59505
G1 X84.977 Y91.718 E39.62481
G1 X85.729 Y91.852 E39.66292
G1 X86.454 Y92.051 E39.70042
G1 X87.146 Y92.31 E39.73729
G1 X87.822 Y92.639 E39.7748
G1 X88.467 Y93.027 E39.81235
G1 X89.061 Y93.464 E39.84914
G1 X89.481 Y93.824 E39.87674
G1 X89.925 Y94.267 E39.90803
G1 X90.408 Y94.838 E39.94534
G1 X90.827 Y95.439 E39.98189
G1 X91.206 Y96.108 E40.02025
G1 X91.512 Y96.781 E40.05714
G1 X91.758 Y97.491 E40.09462
G1 X91.93 Y98.176 E40.12986
G1 X92.046 Y98.943 E40.16856
G1 X92.093 Y99.714 E40.2071
G1 X92.098 Y115.369 E40.98813
G1 X92.17 Y115.979 E41.01877
G1 X92.407 Y116.611 E41.05245
G1 X92.774 Y117.157 E41.08527
G1 X93.267 Y117.615 E41.11884
G1 X93.858 Y117.943 E41.15256
G1 X94.521 Y118.128 E41.1869
G0 F3600 X93.474 Y117.329
G0 X92.721 Y116.45
G0 X90.976 Y96.067
G1 F1950 X87.675 Y92.766 E41.41981
G1 X87.605 Y92.696
G0 F3600 X86.665 Y92.321
G1 F1950 X91.427 Y97.084 E41.75583
G1 X91.497 Y97.154
G0 F3600 X91.674 Y97.897
G1 F1950 X85.848 Y92.07 E42.16692
G0 F3600 X85.141 Y91.929
G1 F1950 X91.812 Y98.601 E42.63763
G0 F3600 X91.883 Y99.237
G1 F1950 X84.501 Y91.855 E43.15847
G0 F3600 X83.916 Y91.836
G1 F1950 X86.419 Y94.339 E43.33507
G1 X86.489 Y94.409
G0 F3600 X85.521 Y94.006
G1 F1950 X83.378 Y91.863 E43.48627
G0 F3600 X82.863 Y91.914
G1 F1950 X84.804 Y93.855 E43.62322
G0 F3600 X84.186 Y93.803
G1 F1950 X82.371 Y91.988 E43.75127
G0 F3600 X81.918 Y92.1
G1 F1950 X83.627 Y93.809 E43.87185
G0 F3600 X83.11 Y93.858
G1 F1950 X81.48 Y92.228 E43.98686
G0 F3600 X81.059 Y92.373
