;FLAVOR:Marlin
;TIME:2924
;Filament used: 2.92391m
;Layer height: 0.2
;MINX:64.3
;MINY:81.801
;MINZ:0.3
;MAXX:153.281
;MAXY:154.2
;MAXZ:22.9
;Generated with Cura_SteamEngine 4.5.0
M140 S60
M105
M190 S60
M104 S202
M105
M109 S202
M82 ;absolute extrusion mode
G21 ;metric values
G90 ;absolute positioning
M82 ;set extruder to absolute mode
M107 ;start with the fan off
G28 X0 Y0 ;move X/Y to min endstops
G28 Z0 ;move Z to min endstops
G1 Z15.0 F9000 ;move the platform down 15mm
G92 E0 ;zero the extruded length
G1 F200 E3 ;extrude 3mm of feed stock
G92 E0 ;zero the extruded length again
G1 F9000;Put printing message on LCD screen
;*** Single Start Tone
M300 S1000 P500 ; chirp to indicate starting to print
;*** End Single Start Tone
M117 Printing..0
G92 E0
G92 E0
G1 F1500 E-6.5
;LAYER_COUNT:114
;LAYER:0
M107
G1 F600 Z1.3
G0 F3600 X66.29 Y90.431 Z1.3
;TYPE:SKIRT
G1 F600 Z0.3
G1 F1500 E0
G1 F1950 X67.047 Y89.934 E0.04518
G1 X67.764 Y89.618 E0.08427
G1 X68.562 Y89.405 E0.12548
G1 X69.839 Y89.317 E0.18934
G1 X70.933 Y89.3 E0.24392
G1 X81.974 Y89.3 E0.79476
G1 X84.771 Y89.26 E0.93432
G1 X87.488 Y89.145 E1.06999
G1 X90.234 Y88.95 E1.20734
G1 X92.94 Y88.682 E1.343
G1 X95.663 Y88.334 E1.47995
G1 X98.364 Y87.909 E1.61637
G1 X101.072 Y87.406 E1.75378
G1 X103.72 Y86.836 E1.88891
G1 X106.36 Y86.189 E2.02452
G1 X109.04 Y85.452 E2.16319
G1 X111.663 Y84.649 E2.30005
G1 X114.244 Y83.778 E2.43595
G1 X117.533 Y82.542 E2.61124
G1 X118.831 Y82.039 E2.68069
G1 X119.315 Y81.894 E2.7059
G1 X119.905 Y81.824 E2.73554
G1 X120.417 Y81.811 E2.76109
G1 X127.348 Y81.801 E3.10688
G1 X128.039 Y81.81 E3.14136
G1 X128.542 Y81.857 E3.16656
G1 X129.032 Y81.983 E3.19181
G1 X129.496 Y82.184 E3.21703
G1 X129.922 Y82.456 E3.24225
G1 X130.726 Y83.201 E3.29693
G1 X131.274 Y83.763 E3.3361
G1 X131.597 Y84.152 E3.36132
G1 X131.866 Y84.613 E3.38795
G1 X133.079 Y87.151 E3.52829
G1 X134.318 Y89.563 E3.66357
G1 X135.637 Y91.964 E3.80024
G1 X137.029 Y94.337 E3.9375
G1 X138.491 Y96.676 E4.07511
G1 X139.995 Y98.935 E4.21051
G1 X141.579 Y101.177 E4.34746
G1 X143.21 Y103.349 E4.48297
G1 X144.934 Y105.516 E4.62113
G1 X146.676 Y107.583 E4.75599
G1 X148.523 Y109.653 E4.89439
G1 X150.784 Y112.034 E5.05821
G1 X151.217 Y112.474 E5.08901
G1 X151.645 Y112.956 E5.12117
G1 X152.202 Y113.746 E5.16939
G1 X152.514 Y114.281 E5.20029
G1 X152.764 Y114.824 E5.23011
G1 X153.01 Y115.565 E5.26906
G1 X153.161 Y116.218 E5.3025
G1 X153.281 Y117.268 E5.35523
G1 X153.27 Y118.012 E5.39235
G1 X153.21 Y118.586 E5.42114
G1 X153.04 Y119.395 E5.46239
G1 X152.835 Y120.031 E5.49572
G1 X152.553 Y120.686 E5.5313
G1 X152.117 Y121.456 E5.57545
G1 X151.58 Y122.164 E5.61978
G1 X151.165 Y122.623 E5.65065
G1 X150.257 Y123.564 E5.71589
G1 X148.042 Y125.899 E5.87646
G1 X146.232 Y127.935 E6.01237
G1 X144.451 Y130.056 E6.15055
G1 X142.778 Y132.169 E6.28501
G1 X141.13 Y134.375 E6.42239
G1 X139.554 Y136.613 E6.55895
G1 X138.037 Y138.902 E6.69595
G1 X136.593 Y141.221 E6.83224
G1 X135.204 Y143.601 E6.96972
G1 X133.908 Y145.969 E7.1044
G1 X132.634 Y148.467 E7.2443
G1 X132.099 Y149.585 E7.30613
G1 X131.478 Y150.871 E7.37738
G1 X131.086 Y151.512 E7.41486
G1 X130.442 Y152.288 E7.46517
G1 X130.017 Y152.692 E7.49443
G1 X129.193 Y153.286 E7.54511
G1 X128.739 Y153.535 E7.57094
G1 X128.191 Y153.772 E7.60073
G1 X127.623 Y153.957 E7.63053
G1 X127.083 Y154.082 E7.65818
G1 X126.319 Y154.169 E7.69655
G1 X125.203 Y154.197 E7.75224
G1 X122.759 Y154.2 E7.87417
G1 X122.052 Y154.191 E7.90945
G1 X121.329 Y154.143 E7.9456
G1 X120.813 Y154.063 E7.97165
G1 X120.27 Y153.932 E7.99952
G1 X119.725 Y153.747 E8.02823
G1 X119.036 Y153.425 E8.06617
G1 X118.497 Y153.118 E8.09712
G1 X116.834 Y152.106 E8.19424
G1 X114.464 Y150.751 E8.33044
G1 X112.061 Y149.467 E8.46637
G1 X109.607 Y148.244 E8.60316
G1 X107.131 Y147.096 E8.73932
G1 X104.595 Y146.005 E8.87705
G1 X102.051 Y144.995 E9.01361
G1 X99.461 Y144.054 E9.15109
G1 X96.913 Y143.206 E9.28507
G1 X94.272 Y142.41 E9.42268
G1 X91.608 Y141.688 E9.56038
G1 X88.969 Y141.053 E9.6958
G1 X86.274 Y140.484 E9.83322
G1 X83.568 Y139.994 E9.97042
G1 X80.903 Y139.587 E10.10492
G1 X78.173 Y139.249 E10.24216
G1 X75.433 Y138.988 E10.37948
G1 X72.711 Y138.807 E10.51558
G1 X70.272 Y138.725 E10.63733
G1 X69.394 Y138.688 E10.68117
G1 X68.59 Y138.596 E10.72154
G1 X68.118 Y138.49 E10.74568
G1 X67.515 Y138.29 E10.77737
G1 X66.905 Y137.982 E10.81147
G1 X66.535 Y137.748 E10.83331
G1 X66.022 Y137.345 E10.86585
G1 X65.43 Y136.71 E10.90917
G1 X64.941 Y135.965 E10.95363
G1 X64.618 Y135.236 E10.99341
G1 X64.394 Y134.36 E11.03852
G1 X64.313 Y133.578 E11.07774
G1 X64.3 Y132.813 E11.11591
G1 X64.3 Y126.767 E11.41755
G1 X64.329 Y125.226 E11.49444
G1 X64.383 Y124.567 E11.52743
G1 X64.645 Y121.829 E11.66465
G1 X64.829 Y119.079 E11.80216
G1 X64.936 Y116.331 E11.93936
G1 X64.964 Y113.577 E12.07676
G1 X64.916 Y110.907 E12.20999
G1 X64.787 Y108.111 E12.34963
G1 X64.583 Y105.384 E12.48606
G1 X64.439 Y103.896 E12.56065
G1 X64.328 Y102.833 E12.61397
G1 X64.3 Y101.806 E12.66523
G1 X64.3 Y95.462 E12.98173
G1 X64.313 Y94.552 E13.02713
G1 X64.342 Y93.995 E13.05496
G1 X64.435 Y93.389 E13.08555
G1 X64.694 Y92.561 E13.12883
G1 X65.106 Y91.75 E13.17421
G1 X65.655 Y91.022 E13.2197
G1 X66.29 Y90.431 E13.26298
G1 F1500 E6.76298
G1 F600 Z1.3
G0 F3600 X85.284 Y100.658 Z1.3
;TYPE:SUPPORT
G1 F600 Z0.3
G1 F1500 E13.26298
G1 F1950 X85.54 Y100.303 E13.28482
G1 X85.871 Y99.984 E13.30775
G1 X86.244 Y99.731 E13.33024
G1 X86.658 Y99.547 E13.35284
G1 X87.091 Y99.441 E13.37508
G1 X87.548 Y99.409 E13.39794
G1 X87.995 Y99.456 E13.42036
G1 X88.426 Y99.581 E13.44275
G1 X88.842 Y99.784 E13.46584
G1 X89.197 Y100.04 E13.48768
G1 X89.516 Y100.371 E13.51061
G1 X89.769 Y100.744 E13.5331
G1 X89.953 Y101.158 E13.5557
G1 X90.063 Y101.608 E13.57881
G1 X90.1 Y102.025 E13.5997
G1 X90.1 Y104.3 E13.7132
G1 X84.9 Y104.3 E13.97263
G1 X84.906 Y101.987 E14.08802
G1 X84.956 Y101.504 E14.11225
G1 X85.08 Y101.076 E14.13448
G1 X85.284 Y100.658 E14.15769
G0 F3600 X85.344 Y100.901
G1 F1950 X85.344 Y104.14 E14.31928
G0 F3600 X85.062 Y104.013
G1 F1950 X89.94 Y104.013 E14.56264
G1 F1500 E8.06264
G1 F600 Z1.3
G0 F3600 X88.011 Y104.14 Z1.3
G1 F600 Z0.3
G1 F1500 E14.56264
G1 F1950 X88.011 Y99.628 E14.78775
G1 F1500 E8.28775
G1 F600 Z1.3
G0 F3600 X89.835 Y101.346 Z1.3
G1 F600 Z0.3
G1 F1500 E14.78775
G1 F1950 X85.169 Y101.346 E15.02054
G1 F1500 E8.52054
G1 F600 Z1.3
G0 F3600 X95.7 Y106.356 Z1.3
G1 F600 Z0.3
G1 F1500 E15.02054
G1 F1950 X96.44 Y106.356 E15.05746
G1 X96.839 Y105.957 E15.08561
G1 X96.839 Y105.008 E15.13295
G1 X96.854 Y104.993 E15.13401
G1 X96.854 Y105.957 E15.18211
G1 X97.253 Y106.356 E15.21026
G1 X100.3 Y106.356 E15.36227
G1 X100.3 Y121.644 E16.12499
G1 X97.252 Y121.644 E16.27706
G1 X96.853 Y122.043 E16.30521
G1 X96.853 Y123.026 E16.35425
G1 X96.838 Y123.011 E16.35531
G1 X96.838 Y122.043 E16.40361
G1 X96.439 Y121.644 E16.43176
G1 X95.7 Y121.644 E16.46863
G1 X95.7 Y106.356 E17.23135
G0 F3600 X96.012 Y106.516
G1 F1950 X96.012 Y121.484 E17.9781
G1 F1500 E11.4781
G1 F600 Z1.3
G0 F3600 X95.859 Y120.015 Z1.3
G1 F600 Z0.3
G1 F1500 E17.9781
G1 F1950 X100.139 Y120.015 E18.19163
G1 F1500 E11.69163
G1 F600 Z1.3
G0 F3600 X98.679 Y121.484 Z1.3
G1 F600 Z0.3
G1 F1500 E18.19163
G1 F1950 X98.679 Y106.516 E18.93839
G1 F1500 E12.43839
G1 F600 Z1.3
G0 F3600 X100.14 Y106.68 Z1.3
G1 F600 Z0.3
G1 F1500 E18.93839
G1 F1950 X95.86 Y106.68 E19.15192
G1 F1500 E12.65192
G1 F600 Z1.3
G0 F3600 X95.86 Y109.347 Z1.3
G1 F600 Z0.3
G1 F1500 E19.15192
G1 F1950 X100.14 Y109.347 E19.36545
G1 F1500 E12.86545
G1 F600 Z1.3
G0 F3600 X100.14 Y112.014 Z1.3
G1 F600 Z0.3
G1 F1500 E19.36545
G1 F1950 X95.86 Y112.014 E19.57898
G1 F1500 E13.07898
G1 F600 Z1.3
G0 F3600 X95.86 Y114.681 Z1.3
G1 F600 Z0.3
G1 F1500 E19.57898
G1 F1950 X100.14 Y114.681 E19.79251
G1 F1500 E13.29251
G1 F600 Z1.3
G0 F3600 X100.14 Y117.348 Z1.3
G1 F600 Z0.3
G1 F1500 E19.79251
G1 F1950 X95.86 Y117.348 E20.00604
G1 F1500 E13.50604
G1 F600 Z1.3
G0 F3600 X90.1 Y123.7 Z1.3
G1 F600 Z0.3
G1 F1500 E20.00604
G1 F1950 X90.094 Y126.013 E20.12144
G1 X90.044 Y126.496 E20.14566
G1 X89.92 Y126.924 E20.16789
G1 X89.716 Y127.342 E20.1911
G1 X89.46 Y127.697 E20.21293
G1 X89.129 Y128.016 E20.23587
G1 X88.756 Y128.269 E20.25836
G1 X88.342 Y128.453 E20.28096
G1 X87.909 Y128.559 E20.3032
G1 X87.452 Y128.591 E20.32605
G1 X87.005 Y128.544 E20.34848
G1 X86.574 Y128.419 E20.37087
G1 X86.158 Y128.216 E20.39396
G1 X85.803 Y127.96 E20.4158
G1 X85.484 Y127.629 E20.43873
G1 X85.231 Y127.256 E20.46122
G1 X85.047 Y126.842 E20.48382
G1 X84.937 Y126.392 E20.50693
G1 X84.9 Y125.975 E20.52782
G1 X84.9 Y123.7 E20.64132
G1 X90.1 Y123.7 E20.90075
G1 F1500 E14.40075
G1 F600 Z1.3
G0 F3600 X89.934 Y125.349 Z1.3
G1 F600 Z0.3
G1 F1500 E20.90075
G1 F1950 X85.059 Y125.349 E21.14396
G1 F1500 E14.64396
G1 F600 Z1.3
G0 F3600 X85.344 Y123.86 Z1.3
G1 F600 Z0.3
G1 F1500 E21.14396
G1 F1950 X85.344 Y127.116 E21.3064
G1 F1500 E14.8064
G1 F600 Z1.3
G0 F3600 X86.153 Y128.016 Z1.3
G1 F600 Z0.3
G1 F1500 E21.3064
G1 F1950 X88.842 Y128.016 E21.44056
G0 F3600 X88.011 Y128.37
G1 F1950 X88.011 Y123.86 E21.66556
G1 F1500 E15.16556
G1 F600 Z1.3
;MESH:Z_Level_Adjstment_Switch_Mount_PFM.STL
G0 F3600 X84.811 Y129.092 Z1.3
;TYPE:WALL-INNER
G1 F600 Z0.3
G1 F1500 E21.66556
G1 F1950 X85.39 Y129.511 E21.70122
G1 X86.031 Y129.824 E21.73681
G1 X86.717 Y130.021 E21.77242
G1 X87.426 Y130.096 E21.80799
G1 X88.139 Y130.048 E21.84364
G1 X88.832 Y129.876 E21.87926
G1 X89.486 Y129.585 E21.91497
G1 X90.078 Y129.185 E21.95062
G1 X90.592 Y128.689 E21.98625
G1 X91.011 Y128.11 E22.02191
G1 X91.324 Y127.469 E22.0575
G1 X91.521 Y126.783 E22.09311
G1 X91.594 Y126.095 E22.12762
G1 X91.599 Y124.1 E22.22716
G1 X95.573 Y124.1 E22.42542
G1 X95.591 Y134.7 E22.95426
G1 X95.591 Y134.9 E22.96423
G1 X95.391 Y134.9 E22.97069
G1 X69.527 Y134.9 E24.26105
G1 X69.257 Y134.877 E24.27457
G1 X69.023 Y134.814 E24.28666
G1 X68.803 Y134.711 E24.29878
G1 X68.598 Y134.568 E24.31125
G1 X68.432 Y134.402 E24.32297
G1 X68.289 Y134.197 E24.33544
G1 X68.186 Y133.977 E24.34755
G1 X68.123 Y133.744 E24.3596
G1 X68.1 Y133.477 E24.37297
G1 X68.1 Y125.824 E24.75478
G1 X68.121 Y125.279 E24.78199
G1 X68.166 Y125.088 E24.79178
G1 X68.378 Y124.669 E24.8152
G1 X68.495 Y124.531 E24.82423
G1 X68.882 Y124.249 E24.84812
G1 X69.045 Y124.179 E24.85697
G1 X69.535 Y124.102 E24.88172
G1 X83.2 Y124.1 E25.56347
G1 X83.4 Y124.1 E25.57344
G1 X83.4 Y124.3 E25.5799
G1 X83.4 Y126.026 E25.66602
G1 X83.453 Y126.645 E25.69701
G1 X83.624 Y127.333 E25.73238
G1 X83.915 Y127.986 E25.76805
G1 X84.315 Y128.578 E25.80369
G1 X84.811 Y129.092 E25.83933
G0 F3600 X84.746 Y129.167
G0 X72.482 Y127.255
G0 X71.361 Y127.565
G0 X70.492 Y128.365
G0 X70.58 Y128.412
G1 F1950 X70.347 Y129.044 E25.87293
G1 X70.294 Y129.517 E25.89668
G1 X70.406 Y130.182 E25.93032
G1 X70.599 Y130.618 E25.95411
G1 X71.028 Y131.137 E25.9877
G1 X71.412 Y131.42 E26.0115
G1 X72.044 Y131.653 E26.04511
G1 X72.517 Y131.706 E26.06885
G1 X73.182 Y131.594 E26.1025
G1 X73.618 Y131.401 E26.12629
G1 X74.137 Y130.972 E26.15988
G1 X74.42 Y130.588 E26.18368
G1 X74.653 Y129.956 E26.21728
G1 X74.706 Y129.483 E26.24103
G1 X74.594 Y128.818 E26.27467
G1 X74.401 Y128.382 E26.29846
G1 X73.972 Y127.863 E26.33205
G1 X73.588 Y127.58 E26.35585
G1 X72.956 Y127.347 E26.38946
G1 X72.483 Y127.294 E26.4132
G1 X71.818 Y127.406 E26.44685
G1 X71.382 Y127.599 E26.47064
G1 X70.863 Y128.028 E26.50423
G1 X70.58 Y128.412 E26.52803
G0 F3600 X70.936 Y128.604
;TYPE:WALL-OUTER
G1 F1950 X70.739 Y129.137 E26.55638
G1 X70.698 Y129.506 E26.5749
G1 X70.792 Y130.066 E26.60323
G1 X70.942 Y130.406 E26.62177
G1 X71.305 Y130.844 E26.65015
G1 X71.604 Y131.064 E26.66867
G1 X72.137 Y131.261 E26.69702
G1 X72.506 Y131.302 E26.71554
G1 X73.066 Y131.208 E26.74387
G1 X73.406 Y131.058 E26.76241
G1 X73.844 Y130.695 E26.79079
G1 X74.064 Y130.396 E26.80931
G1 X74.261 Y129.863 E26.83766
G1 X74.302 Y129.494 E26.85619
G1 X74.208 Y128.934 E26.88452
G1 X74.058 Y128.594 E26.90306
G1 X73.695 Y128.156 E26.93144
G1 X73.396 Y127.936 E26.94996
G1 X72.863 Y127.739 E26.97831
G1 X72.494 Y127.698 E26.99683
G1 X71.934 Y127.792 E27.02516
G1 X71.594 Y127.942 E27.0437
G1 X71.156 Y128.305 E27.07208
G1 X70.936 Y128.604 E27.0906
G0 F3600 X70.867 Y128.791
G0 X70.399 Y128.618
G0 X71.361 Y127.565
G0 X72.482 Y127.255
G0 X84.781 Y129.193
G0 X85.074 Y128.789
G1 F1950 X85.596 Y129.167 E27.12275
G1 X86.175 Y129.449 E27.15488
G1 X86.794 Y129.627 E27.18702
G1 X87.434 Y129.695 E27.21913
G1 X88.077 Y129.651 E27.25128
G1 X88.702 Y129.496 E27.28341
G1 X89.291 Y129.234 E27.31557
G1 X89.825 Y128.873 E27.34773
G1 X90.289 Y128.426 E27.37987
G1 X90.667 Y127.904 E27.41202
G1 X90.949 Y127.325 E27.44415
G1 X91.127 Y126.706 E27.47629
G1 X91.194 Y126.073 E27.50804
G1 X91.2 Y123.7 E27.62643
G1 X95.972 Y123.7 E27.86451
G1 X95.992 Y135.1 E28.43326
G1 X95.992 Y135.3 E28.44324
G1 X95.792 Y135.3 E28.4497
G1 X69.505 Y135.3 E29.76116
G1 X69.189 Y135.273 E29.77699
G1 X68.883 Y135.19 E29.7928
G1 X68.604 Y135.06 E29.80816
G1 X68.339 Y134.875 E29.82428
G1 X68.125 Y134.661 E29.83938
G1 X67.94 Y134.396 E29.85551
G1 X67.81 Y134.117 E29.87086
G1 X67.727 Y133.811 E29.88668
G1 X67.7 Y133.5 E29.90225
G1 X67.7 Y125.809 E30.28596
G1 X67.722 Y125.228 E30.31497
G1 X67.788 Y124.948 E30.32932
G1 X68.041 Y124.449 E30.35723
G1 X68.222 Y124.235 E30.37121
G1 X68.682 Y123.899 E30.39963
G1 X68.935 Y123.792 E30.41334
G1 X69.505 Y123.702 E30.44213
G1 X83.6 Y123.7 E31.14533
G1 X83.8 Y123.7 E31.15531
G1 X83.8 Y123.9 E31.16177
G1 X83.8 Y126.009 E31.26699
G1 X83.849 Y126.579 E31.29553
G1 X84.004 Y127.202 E31.32756
G1 X84.266 Y127.791 E31.35972
G1 X84.627 Y128.325 E31.39188
G1 X85.074 Y128.789 E31.42402
G0 F3600 X85.236 Y128.906
G0 X84.554 Y129.388
;TYPE:SKIN
G1 F1950 X85.189 Y129.847 E31.46311
G1 X85.891 Y130.189 E31.50207
G1 X86.642 Y130.405 E31.54106
G1 X87.418 Y130.488 E31.57999
G1 X88.2 Y130.434 E31.6191
G1 X88.959 Y130.246 E31.65811
G1 X89.676 Y129.928 E31.69724
G1 X90.324 Y129.489 E31.73629
G1 X90.888 Y128.946 E31.77535
G1 X91.347 Y128.311 E31.81444
G1 X91.689 Y127.609 E31.8534
G1 X91.905 Y126.858 E31.89239
G1 X91.984 Y126.116 E31.92961
G1 X91.988 Y124.49 E32.01074
G1 X95.183 Y124.49 E32.17013
G1 X95.201 Y134.51 E32.67004
G1 X69.536 Y134.51 E33.95047
G1 X69.324 Y134.492 E33.96108
G1 X69.161 Y134.448 E33.96951
G1 X68.999 Y134.372 E33.97843
G1 X68.844 Y134.264 E33.98786
G1 X68.736 Y134.156 E33.99548
G1 X68.628 Y134.001 E34.0049
G1 X68.552 Y133.84 E34.01378
G1 X68.507 Y133.675 E34.02232
G1 X68.49 Y133.477 E34.03223
G1 X68.49 Y125.839 E34.41329
G1 X68.509 Y125.331 E34.43866
G1 X68.536 Y125.217 E34.4445
G1 X68.702 Y124.891 E34.46275
G1 X68.761 Y124.821 E34.46732
G1 X69.081 Y124.588 E34.48707
G1 X69.15 Y124.558 E34.49082
G1 X69.569 Y124.492 E34.51198
G1 X83.01 Y124.49 E35.18256
G1 X83.01 Y126.043 E35.26004
G1 X83.067 Y126.709 E35.29338
G1 X83.254 Y127.46 E35.332
G1 X83.572 Y128.176 E35.37108
G1 X84.011 Y128.824 E35.41013
G1 X84.554 Y129.388 E35.44919
G0 F3600 X75.1 Y129.472
G1 F1950 X74.97 Y128.705 E35.488
G1 X74.736 Y128.175 E35.51691
G1 X74.242 Y127.578 E35.55557
G1 X73.775 Y127.233 E35.58453
G1 X73.046 Y126.965 E35.62328
G1 X72.472 Y126.9 E35.6521
G1 X71.705 Y127.03 E35.69091
G1 X71.175 Y127.264 E35.71982
G1 X70.578 Y127.758 E35.75848
G1 X70.233 Y128.225 E35.78744
G1 X69.965 Y128.954 E35.82619
G1 X69.9 Y129.528 E35.85501
G1 X70.03 Y130.295 E35.89383
G1 X70.264 Y130.825 E35.92273
G1 X70.758 Y131.422 E35.96139
G1 X71.225 Y131.767 E35.99036
G1 X71.954 Y132.035 E36.02911
G1 X72.528 Y132.1 E36.05793
G1 X73.295 Y131.97 E36.09674
G1 X73.825 Y131.736 E36.12564
G1 X74.422 Y131.242 E36.1643
G1 X74.767 Y130.775 E36.19327
G1 X75.035 Y130.046 E36.23202
G1 X75.1 Y129.472 E36.26084
G0 F3600 X74.455 Y130.606
G0 X73.868 Y131.245
G0 X69.224 Y134.278
G1 F1950 X68.721 Y133.775 E36.29633
G0 F3600 X68.669 Y133.158
G1 F1950 X69.84 Y134.329 E36.37895
G0 F3600 X70.406 Y134.329
G1 F1950 X68.669 Y132.592 E36.5015
G0 F3600 X68.669 Y132.026
G1 F1950 X70.972 Y134.329 E36.66399
G0 F3600 X71.537 Y134.329
G1 F1950 X68.669 Y131.461 E36.86634
G0 F3600 X68.669 Y130.895
G1 F1950 X72.103 Y134.329 E37.10863
G0 F3600 X72.669 Y134.329
G1 F1950 X68.669 Y130.329 E37.39085
G0 F3600 X68.669 Y129.763
